X:1
T:AGNUS   DEI
T:Jos. Gruber, op.104
T:AGNUS   DEI
T:KYRIE
C:Jos. Gruber, op.104
%%score { ( 1 3 7 ) | ( 2 4 5 6 ) } { ( 8 9 12 13 ) | ( 10 11 14 ) }
L:1/8
M:4/4
K:Eb
V:1 treble nm="Soprano Alto" snm="S."
V:3 treble 
V:7 treble 
V:2 bass 
V:4 bass 
V:5 bass 
V:6 bass 
V:8 treble transpose=3 nm="Organo"
V:9 treble transpose=3 
V:12 treble transpose=3 
V:13 treble transpose=3 
V:10 bass transpose=3 
V:11 bass transpose=3 
V:14 bass transpose=3 
V:1
"^Larghetto""^Viol." z8 |"^Clar.Corni." z8 |"^Instrument change" z8 |"^Instrument change" z8 || %4
w: ||||
w: ||||
"^voll" z8 |"^Instrument change" z8 |"^Instrument change" z8 |!mf!"^Viol. II.""^-""^S.A." z8 | %8
w: ||||
w: ||||
"^-" z8 |"^-" z8 |!mf!"^-""^Viol. I." (G4"^-" c4- |"^-" ce) (dc) B2 B2 | %12
w: ||||
w: ||Ky- *|* * ri- * e e-|
"^Instrument change" (c2"^-" B2"^-" =A4) |"^-""^S.A." B4!f! z4 | %14
w: ||
w: lei- * *|son,|
"^voll" (G2"^-""^-""^-""^-" c4 =B2 |"^-""^-" c3)"^-""^-" d e2 e2 | (e4"^-" d2"^-"!>(! c2)!>)! | %17
w: Ky- ri- *|e * * e-|lei- * *|
w: Ky- * *|* ri- e *||
 =B4!p! G4 |!<(!!>(! G8!<)!!>)! | !fermata!=F8 ||!p!"^Solo""^Dolce 8'""^Viol." z8 |"^Corni." z8 | %22
w: son, e-|lei-|son.|||
w: |||||
 z8 |!p! z8 |"^Solo" (B4 _AB)cA | F4 G2!f!"^Tutti" B2 |"^voll" e4 d2 d2 |"^rit.""^rit." (cded c4) | %28
w: ||Chri- * * ste e-|lei- son, e-|\- son, e-|lei- * \- * \-|
w: ||||||
 =B8 ||"^a tempo"!f!"^Clar. II." z8 |"^Cornu." z8 | z8 | z8 |!f!"^Clar.I." (G4 c4- | %34
w: son.|||||son, \-|
w: |||||Ky- *|
 ce) (dc) B2 B2 |"^voll"!<(! (=B6!<)! c2) | c4 c4 |!ff! (f6 e2) |"^-" e4!p! d4 | %39
w: \- * ri- * e e-|lei- *|son, e-|lei- *|son, e-|
w: * * ri- * e *|||||
"^Corni." (c4"^-" _B2"^-" A2 |"^-""^-""^-" G8) | G4!p!"^voll" G4 |!<(! (A6!<)!"^-"!>(! G2)!>)! | %43
w: lei- * *||son, e-|lei- *|
w: ||||
 G4"^Viol." z4 | z8 |] %45
w: son.||
w: ||
[M:4/4]"^Allegro"[Q:1/4=120]"^Ein sanftes 8   füssiges Reg.""^Viol. Cornu.""^Org. oblig."[Q:1/4=120] z4!p! E2 G2 | %46
w: Et in|
w: |
 [GB]4 [GB]4 |!<(! c6!<)! d2 | [Be]3 [GB]"^Clar." [GB]4 | z2!f! f4 f2 | g4 f4 | (e3 d"^-""^-" c4) | %52
w: ter- ra|pax ho-|mi- ni- bus|bo- nae|vo- lun-|ta- * *|
w: ||||||
"^-" =B4 z2!f! G2 | (c2 d2"^-" e2) f2 | g4 e2 e2 | e4 e2 e2 | e4 z4 | z2!p!!<(! [cf]4 [cf]2 | %58
w: tis. Lau-|da- * * mus|te, be- ne-|di- ci- mus|te,|ad- o-|
w: ||||||
"^-" [cg]6!<)! c2 | c2!f!"^voll" =e2 e2 e2 | f4 _e4 | d2 d2 (ed) (ef) |"^-" (g4"^-" f4 | %63
w: ra- mus|te, glo- ri- fi-|ca- mus|te, glo- ri- * fi- *|ca- *|
w: |||||
"^-" e6)"^-" d2 | e6 z2 |!p!"^Viol.Cornu.Clar." d4 d2 d2 | d4 c2 c2 | d4 B4- | %68
w: * mus|te.|Gra- ti- as|a- gi- mus|ti- bi|
w: |||||
 B2 z2"^Viol."!f!!<(! z4!<)! | z4!f!"^voll" d2"^-" d2 | c2 F2 z4 | z4 e2"^-" e2 | d2 G2 d2 d2 | %73
w: _||gnam, *||gnam, * pro- pter|
w: |pro- pter|ma- gnam,|pro- pter|ma- gnam, * *|
 e4 f4 | (g2 e2) d2 c2 | (B6"^-" =A2) | B4 z4 |!p! _G4 G2 G2 |"^-"!<(! A6!<)! B2 | _c6 c2 | %80
w: ma- gnam|glo- * ri- am|tu- *|am.|Do- mi- ne|De- us,|Rex coe-|
w: |||||||
"^-"!>(! (_c4!>)! B2) B2 |!f!"^voll" =g4 e4 | =c4 A2 c2 | f4 d4 | =B4 z4 | %85
w: le- * stis,|De- us|Pa- ter o-|mni- po-|tens.|
w: |||||
!p!"^Viol. Clar." E4!<(! E2 E2 |"^-" F6 G2 |"^-" A6!<)! A2 | A3 G G4 |!p! c4 c4 | %90
w: Do- mi- ne|Fi- li|u- ni-|ge- ni- te,|Je- su|
w: |||||
!<(! (c6"^-" d2!<)! |"^-""^-" e6"^-""^-" f2 |"^-""^-""^-" g8) |"^Viol." G4!mf!"^-" G4- | G4 G2 A2 | %95
w: Chri- *|||ste, Do-|* mi- ne|
w: |||||
 _B4 B4 |!<(! B6 c2!<)! | d4 d4 |!f! g4 g2 g2 | f8 | !fermata!=e8 ||"^Larghetto""^Cello." z8 | z8 | %103
w: De- us,|A- gnus|De- i,|Fi- li- us|Pa-|tris.|||
w: ||||||||
 z8 |"^Clar.II.""^-""^Cornu.""^-" z8 | z4!p!"^Clar.I." C2 C2 | G4 G2 GG |!<(! A2 G2 (FAd!<)!c) | %108
w: ||mi- se-|re- re, mi- se-|re- re no- * * *|
w: |||||
 =B6"^Cello." z2 | z8 | z8 |"^Clar.II.""^Cornu." z8 | z4!p!"^Clar.I.""^-" d4- | d3"^-" d d4 | %114
w: bis.||||su-|* sci- pe|
w: ||||||
!<(! d2 e2 f2 e2!<)! | d4 d4 | (e2"^-" g4"^-" e2) |"^Corni. Trombe." d4 z2!f!"^Tutti" G2 | %118
w: de- pre- ca- ti-|o- nem|no- * *|stram. Qui|
w: ||||
 c2 cc d2 dd | e4 c2 z2 |!p! _B4 c4 | B4 G4 |!>(! G8!>)! | !fermata!F8 || %124
w: se- des ad dex- te- ram|Pa- tris,|mi- se-|re- re|no-|bis.|
w: ||||||
"^Viol. Cornu.""^Tempo I""^Org. oblig." z4!p! (E2 G2 |"^-"!<(! [GB]3) [GB] [GB]2!<)! [GB]2 | %126
w: Quo- *|* ni- am Tu|
w: ||
 c6 d2 | (([Be]3 [GB]))"^Clar." [GB]4 | z2!f! f2 f2 f2 | g3 g f2 f2 | e6 dc |"^voll" =B3 B B4 | %132
w: so- lus|San- * ctus,|Tu so- lus|Do- mi- nus, Tu|so- lus *|tis- si- mus,|
w: ||||so- lus Al-|tis- si- mus,|
 z4!p!!<(! c2!<)! c2 |!>(! =B4!>)!!f! G4 |"^Viola.""^Cello." z8 |!f! z8 |"^Clar.II." z8 | z8 | %138
w: su *|Chri- ste.|||||
w: Je- su||||||
!f!"^Clar.I." f4 c2 e2 | d2 c2 (B2 _A2) |"^voll" G4 A2 F2 | B2 B2 B2 =B2 | c4 c2 c2 | c4 c4 | %144
w: * cum cto|Spi- ri- tu, *|cum San- cto|Spi- ri- tu in|glo- ri- a|De- i|
w: ||||||
 (c6 d2) | e4 z4 | z2 (E2 F2"^-" G2 | A2 B2 c2 d2) |"^-" e4 (f4 | e8- |"^-" e4"^-"!>(! d4) | %151
w: Pa- *|tris.|A- * *||men, a-|||
w: |||||||
"^Clar." e4!>)! z4 |"^Cornu." z8 | z2!f!"^voll" (E2 F2"^-" G2 |"^-" A2"^-" B2"^-" c2"^-" d2) | %155
w: men,||a- * *||
w: ||||
 e4 f2 f2 | (e8- | e4"^-" d4) | e4 z4 |!ff! [eg]8 | e2 z2 z4 |] %161
w: men, a- men,|a-||men,|a-|men.|
w: ||||||
[M:3/4]!p!"^Viol. Cornu.""^Allegro"[Q:1/4=120][Q:1/4=120] B4 B2 | B2 B2 B2 | (c4"^-" B2) | B4 B2 | %165
w: Pa- trem|o- mni- po-|ten- *|tem fa-|
w: ||||
 A4 A2 | G2 G2 G2 | (G2"^-" F4) | G2!mf!"^Clar." G2 F2 | E2 D2 C2 | B4 A2 | G2"^voll" B2 c2 | %172
w: cto- rem|coe- li et|ter- *|rae, vi- si-|bi- li- um|o- mni-|um, et in-|
w: |||||||
 (d2 f2) e2 | d4 c2 |"^-" B2 z2 z2 |!f!"^voll" e4 e2 | (e2 c2) d2 | e4 B2 | B2!<(! e2 e2!<)! | %179
w: vi- * si-|bi- li-|um.|Et in|u- * num|Do- mi-|num Je- sum|
w: |||||||
 (f6- | f6 |"^-" =e6) |"^-" c2"^Viol. Clar." c2 BB | (A2 G2) F2 | (_d2 c2) B2 | (A2 G2) G2 | %186
w: Chri-|||stum, Fi- li- um|De- * i|u- * ni-|ge- * ni-|
w: |||||||
 F2"^Viol." z2 z2 |"^Cornu." z6 |!p! c4 c2 | (e2 _d2) c2 |"^Cornu." B2 c2 z2 | (c2 _d2) e2 | %192
w: tum.||Et ex|Pa- * tre|na- tum|an- * te|
w: ||||||
 (f3 e) _dc | (B2 _d2) c2 | B4 z2 |!f!"^voll" c2 c2 c2 | B2 c2 z2 | e2 e2 g2 | f>f g2 z2 | a4 g2 | %200
w: o- * mni- a|sae- * cu-|la.|De- um de|De- o,|lu- men de|lu- mi- ne,|De- um|
w: ||||||||
 f2 f2 f2 | (_g2 f2) e2 | d2 B2 z2 |"^Solo"!mf!"^Viol. Clar." BB B2 B2 |!<(! (B2 c2)!<)! d2 | %205
w: ve- rum de|De- * o|ve- ro.|Ge- ni- tum, non|fa- * ctum,|
w: |||||
"^Cornu." ee ee ee | e2 B2 z2 | (B2 c2) B2 | B2 E2 E2 | A4!>(! A2!>)! | G4 z2 |!mf! G4 G2 | %212
w: con- sub- stan- ti- a- lem|Pa- tri:|per * quem|o- mni- a|fa- cta|sunt,|per quem|
w: |||||||
 G2 F2 E2 |"^Corni." (E2 F2) F2 | E4!mf!"^Tutti""^Clar." G2 | c2 c2 c2 | d>d d2 d2 | dd g2 ff | %218
w: o- mni- a|fa- * cta|sunt. Qui|pro- pter nos|ho- mi- nes, et|pro- pter no- stram sa-|
w: ||||||
"^-" f2 e2"^Cornu." z2 | z6 | z2 z2!mf! e2 | e2 d2 c2 |!<(! (B4 c2!<)! |"^-" d4"^-" f2- | %224
w: lu- tem||de-|scen- dit de|coe- *||
w: ||||||
"^rit.""^rit.""^-""^-""^-" f6) | !fermata!d6 || %226
w: |lis.|
w: ||
"^Adagio"[Q:1/4=60]"^Adagio"[Q:1/4=60]"^Viol. Clar. Cornu.""^(Choral: Salve Regina)" z6 | %227
w: |
w: |
!p!!<(! E2 G2"^Clar.I." B2!<)! | c4!>(! B2!>)! | B2 z2!<(! B2 | (B2!<)! e2) dc | %231
w: Et in- car-|na- tus|est de|Spi- * ri- tu|
w: ||||
 (d2 ed"^-"!>(!cB)!>)! |"^Cornu." B4 z2 |!mf! BB e2 B2 | (c2 A2)!>(! G2!>)! | F4 z2 | %236
w: San- * * * *|cto|ex Ma- ri- a|Vir- * gi-|ne:|
w: |||||
!<(! (G4!<)! A2) | B4 (AG) |"^Cornu." (G2!>(! F3) E!>)! | E4 z2 || %240
w: et _|ho- mo *|fa- * ctus|est.|
w: ||||
[M:4/4]!f!"^voll""^-" (A4 e3) _d | (_c2 B2) A2 (c2 |"^-" B3) B B2 A2 | (_G2!>(! F2)!>)! E2 E2 | %244
w: Cru- * ci-|fi- * xus e-|* ti- am pro|no- * bis sub|
w: ||||
!<(! E3 E!<)! F2 _G2 | F4 B,2 (B2 | B4) A4 |"^dim." _G4 F4 | F6 F2 | !fermata!F8 || %250
w: Pon- ti- o Pi-|la- to pas-|* sus,|et se-|pul- tus|est.|
w: ||||||
!p!"^Allegretto"[Q:1/4=100]"^Viol. Cornu."[Q:1/4=100] G4 A2 B2 |!<(! (c2 d2"^-" e2)!<)! f2 | %252
w: Et re- sur-|re- * * xit|
w: ||
"^Clar." B4 B2 B2 | e4 e2!f! e2 | c4 c2 c2 | d2 c2 =A2 A2 |"^-" (B2 =A2) B2 c2 | =A4 A2 c2- | %258
w: ter- ti- a|di- e, se-|cun- dum Scri-|ptu- ras. Et a-|scen- * dit in|coe- lum: se-|
w: ||||||
 c4 c2 c2 | _e4 e2 e2 | d4 G2!p! G2 |"^Viol." G3 G G2 G2 |"^-""^cresc."!<(! c3 c F2 F2 | %263
w: * det ad|. te- ram|Pa- tris. Et|i- te- rum ven-|tu- rus est cum|
w: |||||
 B3 B E2 EE | A4!<)! G2!f! (g2 | e4) c2!p! c2 |!<(! (E4 F2)!<)!!>(! ^F2!>)! |"^-" G4!f! d2 d2 | %268
w: glo- ri- a ju- di-|ca- re vi-|* vos et|mor- * tu-|os: cu- jus|
w: |||||
 e4 c4 | B4 c2 c2 | d4 d4 | z2!<(! d2 d2!<)! d2 |!ff! g8 | !fermata!f8 |!p!"^Viol." B4 B4 | %275
w: re- gni|non e- rit|fi- nis,|non e- rit|fi-|nis.|Et in|
w: |||||||
 B3 B B4 |"^Cor." (e4 d2) c2 | B3 B B4 | f3 e d2 e2 | (f4 e2) d2 |"^Clar." g4 f4 | e2 d2 c2 B2 | %282
w: Spi- ri- tum|San- * ctum,|Do- mi- num,|et vi- vi- fi-|can- * tem:|qui ex|Pa- tre Fi- li-|
w: |||||||
"^-" =A4 A2 A2 |"^-"!>(! =A8!>)! | =A4 z4 |!mf! z8 | z8 |!p! c4 c4 | c6 c2 |!<(! c8!<)! | %290
w: o- que pro-|ce-|dit.|||si- mul|ad- o-|ra-|
w: ||||||||
 =B4!f! G4 | c2 =B2 c2 d2 | e4 c4 | c4 c4 | c3 c c4 | c4 B4 | =A8 | !fermata!G6!p! B2 || %298
w: tur, et|con- glo- ri- fi-|ca- tur,|qui lo-|cu- tus est|per Pro-|phe-|tas. Et|
w: ||||||||
[M:3/4]"^Tempo I""^Viol. Cornu." B4 B2 | B2 B2 B2 |"^-" c4 B2 | B4 B2 | A4 A2 | !^!G>G G2 G2 | %304
w: u- nam,|san- ctam, ca-|tho- li-|cam et|a- po-|sto- li- cam Ec-|
w: ||||||
 (G2 F2) F2 | G4!mf!"^Clar." G2 | c>c c2 c2 | d2 d2 d2 | d2 g2 f2 | f2 e2 z2 | z6 | %311
w: cle- * si-|am. Con-|fi- te- or, con-|fi- te- or|u- num ba-|ptis- ma||
w: |||||||
 z2 z2!f!"^Clar." (e2- | e2"^-" d2) c2 |!<(! (B4 c2!<)! |"^-" d4"^-" f2- |"^-""^-""^-" f6 | %316
w: pec-|* * ca-|to- *|||
w: |||||
 B2"^Viol. Clar." B2 _A2 | _G4 E2 |"^Corni."!<(! EE _G2!<)! _c2 | e4 _d2 |!>(! _c2 B2)!>)! =A2 | %321
w: rum. Et ex\-|spe- cto|re- sur- re- cti-|o- nem|mor- * tu-|
w: |||||
!<(! =A6!<)! | B4!mf!"^Solo""^Viol." B2 |"^Cornu." B2 B2 B2 | c4 c2 | d3!<(! d e2!<)! | %326
w: o-|rum. Et|vi- tam ven-|tu- ri|sae- cu- li.|
w: |||||
 f2 B2"^Tutti"!f! B2 | g2 g2 f2 | e4 e2 | e2 d2 c2 | (B6 | d6) | e2 z2 z2 | f6 | g2 z2 z2 | %335
w: A- men. Et|vi- tam ven-|tu- ri|sae- cu- li.|A-||men,|a-|men,|
w: |||||||||
!p!!<(! (d6!<)! | f4"^-"!>(! e2)!>)! | e2 z2 z2 | z6 |] %339
w: a-||men.||
w: ||||
[M:4/4]!p!"^Andante sostenuto"[Q:1/4=80]"^Viol. Clar. II""^-""^-"[Q:1/4=80] z8 | %340
w: |
w: |
"^-""^-""^Corni.""^-" z8 | z8 |!p!"^Clar. I" (c4 B2"^-" c2 |"^-" AB"^-"cd"^-""^Cornu." e2"^-" B2) | %344
w: ||San- * *||
w: ||||
 c6 z2 |!f! (f4"^-" e2) e2 | e3 e e2!f! BB | (cd"^-"ef"^-"!f! g2 f2 |"^-""^-""^-" e6)"^-" (dc) | %349
w: ctus,|San- * ctus|Do- mi- nus, * *||Sa- ba- *|
w: ||* * * De- us|Sa- * * * * *|* ba- *|
 !fermata!=B8 ||!f!"^Maestoso"[Q:1/4=70]"^-"[Q:1/4=70] (c4"^-" d4 |"^-""^-" e4) c2 c2 | c4 B2 c2 | %353
w: oth.|Ple- *|* ni sunt|coe- li et|
w: oth.||||
 A4 G4 | z2 (g3 f"^-"ed |"^-" c3) c c4 | z2 (f3"^-" edc | B3) B B4 | z2 e4 dd |"^-" c8 | %360
w: ter- ra|glo- * * *|* ri- a,|glo- * * *|* ri- a,|glo- ri- a|tu-|
w: |||||||
 B4 z2"^Solo"!p! B2 |"^-" e4 B4 | (c3 d e2) f2 | (B2"^-" e3 d"^-" c2) | d4!f! z2"^Tutti" B2 | %365
w: a. Ho-|san- na|in _ _ ex-|cel- * * *|sis, ho-|
w: |||||
 e4 B4 | (c3 d e2) f2 | g4 e4 | z2 f4 e2 | (e2"^-" dc!>)!!>(! d4) | e4"^Clar." e2 e2 | %371
w: san- na|in _ _ ex-|cel- sis,|in ex-|cel- * * *|sis, in ex-|
w: ||||||
"^-" (e6"^-" d2 | e8) | E4"^Viol. Corni." z4 | z8 |] %375
w: cel- *||sis.||
w: ||||
[K:F][M:4/4]"^Andante religioso"[Q:1/4=80]"^Viol."[Q:1/4=80] z8 |"^Clar." z8 |"^Cornu." z8 | z8 | %379
w: ||||
w: ||||
!mf! (A2 B2"^-" c2) F2 | (A2 G2)"^Clar. Cornu." F2 z2 | (d2 e2"^-" f2) B2 | %382
w: Be- * * ne-|di- * ctus,|be- * * ne-|
w: |||
"^-" (d2 c2) B2!p!"^Viol." d2 | (d2 c2)"^Cornu.""^Cello." B2 A2 | G4 G2 G2 | (A2 B2"^-" c2) A2 | %386
w: di- * ctus, qui|ve- * nit in|no- mi- ne|Do- * * mi-|
w: ||||
"^Clar." G4!p! z4 | z8 | z4!p!!<(! G2!<)!"^-" G2 |"^-" e4 c4 | z4 z2 G2 | (G3 A/=B/) c2 c2 | %392
w: ni,|||* ctus,|qui|ve- * * nit in|
w: ||be- ne-|di- ctus,|||
 A4!<(! d2 d2 | =B3!<)! B B2 e2 | c4 c2 f2 | f6 d2 | d4 d4 | e4 d2 d2 | %398
w: no- mi- ne|Do- mi- ni, in|no- mi- ne|Do- mi-|ni, in|no- mi- ne|
w: ||||||
"^Cornu.""^Trombone." (c4"^-" =B2"^-" A2 |!>(! =B6)!>)!"^-" B2 |"^Viol." c4 z4 |"^Clar.I." z8 | %402
w: Do- * *|* mi-|ni.||
w: ||||
 z8 |"^Corni." z8 |"^Viol." z8 |!mf!"^Clar.I." (A2 B2"^-" c2) F2 | (A2 G2)!p!"^Cornu." F4 | %407
w: ||||* * Be-|
w: |||Be- * * ne-|di- * ctus,|
 (B2 d2"^-" f2) B2 | (d2 c2) B2!f! d2 |!<(! e4 e2!<)! e2 | f4 _e2 e2 | d6 d2 | d4 d4 | (c4 =B4 | %414
w: di- * ctus, be-|di- * ctus, qui|ve- nit in|no- mi- ne|Do- mi-|ni, in|no- *|
w: be- * * ne-|di- * ctus, *||||||
"^-" _B4) A2 A2 | (G2 A2"^-"!>)!!>(! B2) (AG) | F4 z2!mf!"^Clar." A2 | G3 ^F G2 A2 | %418
w: * mi- ne|Do- * * mi- *|ni. Ho-|san- na in ex|
w: ||||
 (B2"^-" c4"^-" B2) | A4 z4 |"^-" z8 |"^-""^-" z8 | z4 z2!f! d2 |"^-""^-" d8 | B4 z2 f2 | f8 | %426
w: cel- * *|sis,|||ho-|san-|na, ho-|san-|
w: ||||||||
"^-" d4"^Clar. Cor." z4 |!mf! z4 c2 c2 |"^-""^-"!<(! (d8!<)! | e6"^-" f2) | f4!f!!<(! F2!<)! F2 | %431
w: na|in ex-|cel-||sis, in ex-|
w: |||||
"^Viol.""^-""^-"!<(! (F8!<)! |"^-" c6"^-"!>(! A2)!>)! | F4 z4 | z8 |] %435
w: cel-||sis.||
w: ||||
[K:Eb][M:4/4]!mf!"^Larghetto""^Org. oblig.""^Cornu Solo.""^Solo" z8 | z8 |"^Clar." z8 | z8 | %439
w: ||||
w: ||||
"^-" z8 | z4!f!"^Tromba." G2"^-" G2 ||"^-" c4!f! B4 | B2 e2 d2 c2 |!>(! (B6!>)!"^-""^-" =A2) | %444
w: ||* mi-|re- * re *|no- *|
w: |mi- se-|re- re,|mi- se- re- re||
"^Org. oblig.""^Viol. Cornu." B4"^Gamba 8'" z4 | z8 | z8 ||"^Clar." z8 | z8 |"^-""^-" z8 | %450
w: bis.||||||
w: ||||||
"^Tromba." z8 | z4!f! d2 d2 | e4 (d2 c2) | (B2"^-" G2"^-" =A4) | G4 z4 | z2 c4 G2 | (E2 F2) E2 z2 | %457
w: |||no- * *|bis.|A- gnus|De- * i,|
w: |mi- se-|re- * re|||||
 z2 G2 G2 GG | B4 A4 |!>(! (G6"^-" ^F2)!>)! |"^-""^Viol." G4 z4 | z8 |!p! z8 || %463
w: qui tol- lis pec-|ca- ta|mun- *|di:|||
w: ||||||
[K:C]"^Solo"!<(! (G4!<)!!>(! A4) | G2!>)!!<(! (G2!<)! c2) e2 |!f!!f!"^-" (g4 f2) e2 | %466
w: do- *|na * * *|* no- bis|
w: |* do- * na|no- * bis|
"^Trombe." e4 d2"^Clar. Corni." z2 |!p!!<(! (G4!<)!"^-"!>(! A4)!>)! | G2!<(! (G2!<)! c2) e2 | %469
w: pa- cem,|do- *|na * * *|
w: ||* do- * na|
 d6"^-" c2 | (B4"^-""^-"!>(! A4)!>)! |"^Corni." G4 z4 ||"^Tutti"!f!"^-" (G4"^-" A4) | %473
w: * no-|pa- *|cem,|do- *|
w: no- bis||||
 G2 (G2 c2) e2 | g6"^-" g2 | g4 f4 | f4 e4 | (d4"^-" c2) (ed) | (d2"^-" c4"^-"!>(! B2)!>)! | %479
w: na * * *|* no-|pa- cem,|do- na|no- * bis *|pa- * *|
w: * do- * na|no- bis|||||
 c4!p!!<(! G2 G2!<)! | _A4 (_E2 F2) |!>(! (G6 C2)!>)! |"^Cornu Solo." C4 z4 | %483
w: cem, do- na|no- bis *|pa- *|cem.|
w: ||||
"^Clar. Corni. Tromba." z8 | z8 |] %485
w: ||
w: ||
V:2
 z8 | z8 | z8 | z8 || z8 | z8 | z8 | z8 | z8 | z8 | z8 | z8 | z8 |"^T.B."!f! z8 | C2 E2 D4 | %15
w: |||||||||||||||
w: |||||||||||||||
w: |||||||||||||||
w: ||||||||||||||Ky- * *|
 E2 z2 z2 C2 | C2 DE F2!>(! E2 | D4!>)!!p! =B,4 | C4 _B,4 | B,8 || z8 |!p! z8 |"^Solo" D4 CDEC | %23
w: ||||||||
w: ||||||||
w: |||||||Chri- * * ste e-|
w: ||||||||
 =A,4!p! B,4 |"^Solo" E4 C2 C2 | B,4!f! B,2"^Tutti" B,2 | B,4 B,2 F2 | E8 | D8 || z8 |!f! G,4 C4- | %31
w: ||||||||
w: ||||||||
w: lei- son,|||||||Ky \-|
w: ||||||||
 CE DC B,2 =A,=B, |!f! C6 =B,2 | C6 E2 | C2 =A,2 G,2 D2 |!<(! D6!<)! C2 | C4 E4 |!ff! D6 E2 | %38
w: |||||||
w: |||||||
w: \- * ri \- e * *|Ky- \-|\- ri-|lei- * son, *||||
w: |||||||
 E4!p! F4 | E4 D2 C2- | C2 =B,=A,!>(! B,4!>)! | C4!p! C4 | C8 | C4 z4 | z8 |][M:4/4] z8 | z8 | z8 | %48
w: ||||||||||
w: ||||||||||
w: ||||||||||
w: ||||||||||
 z8 | z2!f! D4 D2 | E4 D4 | E6 C2 | D4 z2!f! G,2 | E2 F2 E2 D2 | E4 B,2 B,2 | E4 E2 _D2 | %56
w: ||||||||
w: ||||||||
w: ||||||||
w: ||||||||
 C4!p!!<(! [CE]2 [CE]2!<)! |"^-""^-" [C-F]8 |"^-" [C=E]6 [CE]2 | [C=E]2!f! G2 G2 G2 | F4 F4 | %61
w: |||||
w: |||||
w: |||||
w: |||||
 F2 B,2 CB, CD | E2 B,2 CB,CD | E4 C2 B,2 | B,6 z2 |!p! B,4 B,2 B,2 | B,4 B,2 B,2 | B,4 D4- | %68
w: |||||||
w: |||||||
w: |||||||
w: |* glo- ri- * fi- *|ca- * mus|te.||||
 D2 z2!<)!!<(! B,2 C2 |!f! D4!f! F4 | F4 C2 D2 | E4 G4 | G4 =B,2 B,2 | C4 D4 | E2 C2 F2 E2 | %75
w: |||||||
w: |||||||
w: |||||||
w: |* pro-|ma- gnam, *|* pro-|ma- gnam, *|* pro-||
 D4 C4 | B,4 z4 |!p! _G,4 G,2 G,2 |!<(! A,6!<)! B,2 | _C6 C2 |!>(! _C4!>)! B,2 B,2 |!f! B,4 E4 | %82
w: |||||||
w: |||||||
w: |||||||
w: |||||||
 E4 C2 C2 | =D4 D4 | D4 z4 | z8 | z8 | z8 | z8 |!p! z4 E2 E2 |!<(! F4 D4!<)! | B,2 E4 C2 | D8 | %93
w: |||||||||||
w: |||||||||||
w: |||||||||||
w: |||||||||||
 D4!mf! =B,4 | C4 C2 C2 | D4 D4 |!<(! E4 E4!<)! | B,4 B,4 |!f! E4 E2 E2 | C8 | C8 || %101
w: ||||||||
w: ||||||||
w: ||||||||
w: ||||||||
 z4!p! z2"^Solo" F,2 | F,4!<(! A,2 C2!<)! | F4 C4 | C3 _D!>(! E4!>)! | C4 z4 | z8 | z8 | %108
w: |||||||
w: |||||||
w: Qui|tol- lis pec-|ca- ta|mun- * *|di,|||
w: |||||||
!p!"^Solo" z8 | z8 | z8 |"^-""^-" z8 | z8 | z8 | z8 | z8 | z8 | z4!f! z2 G,2 | C2 CC D2 DD | %119
w: |||||||||||
w: |||||||||||
w: |||||||||||
w: |||||||||||
 E4 C2 z2 |!p! E4 E4 | D4 _B,4 |!>(! B,8!>)! | B,8 || z8 | z8 | z8 | z8 | z2!f! D2 D2 D2 | %129
w: ||||||||||
w: ||||||||||
w: ||||||||||
w: ||||||||||
 E3 E D2 D2 | E4 C2 C2 | D3 D D4 |!p!!<(! [CE]4!<)! [CE]4 |!>(! [G,D]4!>)! [G,=B,]4 | G4 D2 F2 | %135
w: ||||||
w: ||||||
w: |||||Cum San- cto|
w: ||||||
 E2 D2 C2 B,2 | =A,2 G,F, =E,2 E,2 | F,2 G,2"^-" =A,2 A,2 | B,2 =A,G, A,2 A,2 | B,2 B,2 B,4 | %140
w: |||||
w: |||||
w: Spi- ri- tu in|glo- ri- a De- i|Pa- * * tris,|||
w: |||||
!f! B,4 B,2 B,2 | B,2 B,2 E2 F2 | E4 E2 E2 | E4 E4 | E6 D2 | C4 z4 | z2 E,2 F,2 G,2 | %147
w: |||||||
w: |||||||
w: |||||||
w: |||||||
"^-" A,2"^-" B,2"^-" C2"^-" D2 | E4 C4 | B,8 |!>(! A,8 | G,4!>)! z4 | z8 | z2!f! E,2 F,2 G,2 | %154
w: |||||||
w: |||||||
w: |||||||
w: |||||||
 A,2 B,2 C2 D2 | E4 C2 C2 | B,8 | [B,,A,]8 | G,4 z4 |!ff! E8 | E2 z2 z4 |][M:3/4]!p! E4 E2 | %162
w: ||||||||
w: ||||||||
w: ||||||||
w: ||||||||
 E2 D2 E2 | A,2 C2 E2 | E4!p! E2 | C4 C2 | C2 C2 C2 | C6 | =B,2 z2 z2 | z6 | z6 | z2!mf! E2 E2 | %172
w: ||||||||||
w: ||||||||||
w: ||||||||||
w: ||||||||||
 F4 G2 | F4 E2 | D2 z2 z2 | B,4 B,2 | C4 _C2 | B,4 E2 | E2!<(! B,2 E2!<)! | D6 | C6 | =E6 | %182
w: ||||||||||
w: ||||||||||
w: ||||||||||
w: ||||||||||
 =E2 z2 z2 | z6 | B,4 B,2 | C4 C2 | F,2 z2 z2 | z6 |!p! A,4 A,2 | A,2 B,2 C2 | E2 A,2 z2 | %191
w: |||||||||
w: |||||||||
w: |||||||||
w: |||||||||
 A,2 B,2 C2 | _D4 DD | E4 A,2 | E,4 z2 |!f! E2 E2 E2 | E2 E2 z2 | G2 G2 E2 | D>D E2 z2 | E4 E2 | %200
w: |||||||||
w: |||||||||
w: |||||||||
w: |||||||||
 E2 E2 E2 | E2 F2 _G2 | F2 =D2 z2 | z6 | z6 | z6 | z6 | z6 | z6 | z6 | z6 | z6 | z6 | z6 | z6 | %215
w: |||||||||||||||
w: |||||||||||||||
w: |||||||||||||||
w: |||||||||||||||
 z6 | z6 | z6 | z2 z2!mf! E2 | E2 =E2 F2 | _E2 E2!mf! C2 | C2 F2 E2 |!<(! D4!<)! =E2 | F4 D2 | %224
w: |||||||||
w: |||||||||
w: |||||||||
w: |||||||||
 C4 F2 | F6 || z6 | z6 | z6 | z6 | z6 | z6 | z6 | z6 | z6 | z6 | z6 | z6 | z6 | z6 || %240
w: ||||||||||||||||
w: ||||||||||||||||
w: ||||||||||||||||
w: ||||||||||||||||
[M:4/4]!f! A,4 E3"^-" _D | _C2 B,2 A,2 C2 | B,3 B, B,2 A,2 | _G,2!>(! F,2!>)! E,2 E,2 | %244
w: ||||
w: ||||
w: ||||
w: ||||
!<(! E,3 E,!<)! F,2 _G,2 | F,4 B,,2 B,2 | _D4 D4 |"^dim." B,4 B,4 | B,4 =A,4 | B,8 || %250
w: ||||||
w: ||||||
w: ||||||
w: ||||||
!p! E,4 F,2 G,2 |!<(! A,2 B,2!<)! C2 D2 | E4 E2 E2 | C4 C2!f! G2 | F4 F2 F2 | F2 F2 C2 C2 | %256
w: ||||||
w: ||||||
w: ||||||
w: ||||||
 D2 C2 D2 =E2 | C4 C2 F2- | F4 C2 C2 | C4 C2 C2 | =B,4 B,2!p! G,2 | G,3 G, G,2 G,2 | %262
w: ||||||
w: ||||||
w: ||||||
w: ||||||
"^cresc."!<(! C3 C F,2 F,2 | B,3 B, E,2 E,E, | A,4!<)! G,2!f! D2 | E4 E2!p! C2 | %266
w: ||||
w: ||||
w: ||||
w: ||||
!<(! C6!<)!!>(! C2!>)! | =B,4!f! B,2 B,2 | C4 E4 | E4 E2 E2 | F4 F4 | z2!<(! F2 F2!<)! F2 | %272
w: ||||||
w: ||||||
w: ||||||
w: ||||||
!ff! F4 E4 | D8 |!p! E6 D2 | E3 E E4 | A,4 B,2 C2 | E3 E E4 | D3 C B,2 C2 | D4 C2 B,2 | E4 D4 | %281
w: |||||||||
w: |||||||||
w: |||||||||
w: |||||||||
 C2 C2 C2 C2 | D4 D2 D2 |!>(! D2 ^C=B,!>)! C4 | D4!mf! =A,2 A,2 | B,4 B,2 B,2 | =A,3 A,!p! A,4 | %287
w: ||||||
w: ||||||
w: |||* Qui cum|Pa- tre et||
w: ||||||
 F4 F4 |!p! F4 F4 |!<(! _E8!<)! | D4!f! G,4 | C2 =B,2 C2 D2 | E4 C4 | C4 C4 | C3 C C4 | C4 B,4 | %296
w: |||||||||
w: |||||||||
w: |* ad-|ra-|tur, *||||||
w: |||||||||
 =A,8 | G,6!p! E2 ||[M:3/4] E4 E2 | E2 D2 E2 | A,2 C2 E2 | E4!p! E2 | C4 C2 | C>C C2 C2 | C4 C2 | %305
w: |||||||||
w: |||||||||
w: |||||||||
w: |||||||||
 =B,4 z2 | z6 | z6 | z6 | z6 |!mf! EE =E2 F2 | _E2 E2!f! C2- | C2 F2 E2 |!<(! D4!<)! =E2 | F4 D2 | %315
w: ||||||||||
w: ||||||||||
w: ||||||||||
w: ||||||||||
 C6 | D2 B,2 _A,2 |"^-" _G,4 E,2 |!<(! _G,G, G,2!<)! G,2 | _G,4 G,2 |!>(! _G,4!>)! G,2 | %321
w: ||||||
w: ||||||
w: ||||||
w: ||||||
!<(! _G,2"^-" F,2 E,2!<)! |!mf! F,4"^Solo" =D2 | E2 E2 E2 | A,4 A,2 | B,3 B, C2 | %326
w: |||||
w: |||||
w: |||||
w: |||||
 D2 D2"^Tutti"!f! B,2 | E2 B,2 D2 | E4 C2 | C2 D2 E2 | E6 | F6 | E2 z2 z2 | D6 | E2 z2 z2 | %335
w: |||||||||
w: |||||||||
w: |||||||||
w: |||||||||
!p!!<(! F6!<)! | D4!>(! E2!>)! | E2 z2 z2 | z6 |][M:4/4] z8 | z8 | z8 | z8 |!mf! z8 | %344
w: |||||||||
w: |||||||||
w: |||||||||
w: |||||||||
 C4"^-" B,2"^-" C2 |"^-" A,B,"^-"CD"^-" E2 D2 | C3 C B,2 z2 | z4!f! z2 DD | E4 C4 | D8 || %350
w: ||||||
w: ||||||
w: San * *||||||
w: |* * * * * ctus|||||
!f! C4 D4 | E4 C2 C2 | C4 B,2 C2 | A,4 G,4 | z2 =B,C DB,CD | E3 E E4 | z2 =A,_B, CA,B,C | %357
w: |||||||
w: |||||||
w: |||||||
w: |||||||
"^-" D3 D D4 | z2 B,4 B,B, | B,4"^-" =A,4 | B,4 z2"^Solo"!p! E2 | E4 E4 | A,3 B, C2 D2 | %363
w: ||||||
w: ||||||
w: ||||||
w: ||||||
 E3 D C2 F2 | B,4 z2"^Tutti"!f! E2 | B,4 E4 | E3 D C2 C2 | D4 E4 | z2 A,2 B,2 C2 | B,8 | %370
w: |||||||
w: |||||||
w: ||voll *|||||
w: |||||||
 B,4 B,2 B,2 | C4"^-" _C4 | [E,B,]8 | B,4 z4 | z8 |][K:F][M:4/4] z8 | z8 | z8 | z8 | %379
w: |||||||||
w: |||||||||
w: |||||||||
w: |||||||||
!mf! F,2 G,2 A,2 C2 | _D4 C2 z2 | B,2 C2 =D2 D2 | _E4 D2 z2 | z4 z2!p! F,2 | C2 B,2 A,2 G,2 | %385
w: ||||||
w: ||||||
w: ||||||
w: ||||||
 F,2 G,2 A,2 =B,2 | C4 z4 | z2!p! G,4 G,2 |!<(! G,8-!<)! | G,4 G,2 G,2 | G,4 G,2 G,2 | G,4 G,2 C2 | %392
w: |||||||
w: |||||||
w: |||||||
w: |||||||
 C4!<(! A,2 D2 | D3!<)! D D2 =B,2 | C4 C2 C2 | D6 D2 | D4 =B,4 | C4 A,2 A,2 | G,8- | %399
w: |||||||
w: |||||||
w: |||||||
w: |||||||
!>(! G,4 F,4!>)! | E,4 z4 | z8 | z8 | z8 | z8 | z8 | z4!p! C2 C2 | D4 D2 DD | _E4 D2!f! D2 | %409
w: ||||||||||
w: ||||||||||
w: ||||||||||
w: ||||||||||
!<(! _D4 D2!<)! D2 | C2 A,2 B,2 C2 | D6 D2 | D4 F4 | F4 D4 | C4 C2 C2 | DCB,A,!>)!!>(! G,2 B,2 | %416
w: |||||||
w: |||||||
w: |||||||
w: |||||||
 A,4 z4 | z8 | z8 | z4 z2!mf! C2 | A,3 B, C2 D2 | _E2 F4 E2 | D4 z2!f! D2 | D8 | D4 z2 D2 | D8 | %426
w: ||||||||||
w: ||||||||||
w: |||ho-|san- na in ex-|cel- * *|sis, *||||
w: ||||||||||
 D4 z4 | z8 |!mf! z4!<(! D2 D2!<)! | C8 | C4!f!!<(! F,2!<)! F,2 |!<(! F,8!<)! | C6!>(! A,2!>)! | %433
w: |||||||
w: |||||||
w: ||in ex-|cel-|sis, * *|||
w: |||||||
 F,4 z4 | z8 |][K:Eb][M:4/4] z8 | z8 | z8 | z8 |"^-" z8 | z8 ||"^Tutti" z4!f! B,2 B,2 | %442
w: |||||||||
w: |||||||||
w: |||||||||
w: |||||||||
 B,2 C2 F2 E2 |!>(! EDCB, C4!>)! | B,4 z4 |"^Solo"!mf! z2 E4 B,2 | G,2 _A,2 G,2 z2 || %447
w: |||||
w: |||||
w: |||A- gnus|De- * i,|
w: |||||
 z2 B,2!<(! B,2 B,B,!<)! | D4 B,4 | G,2 =A,B, CD E2 |"^Tutti" D4!f! D2 D2 | G4!f! F4 | %452
w: |||||
w: |||||
w: qui tol- lis pec-|ca- ta|mun- * * * * *|di: mi- se-|re- re,|
w: ||||* mi-|
 E2 G2 F2 E2 | D2 B,2 E2 DC | =B,4 z4 | z2 C4 G,2 | E,2 F,2 E,2 z2 | z2 C2 C2 CC | D4 C4 | %459
w: |||||||
w: |||||||
w: mi- se- re- re|||||||
w: re- * re *|||||||
!>(! =B,4!>)! C4 | =B,4 z4 | z8 |!p! z8 ||[K:C]"^Solo"!<(! C4 =A,2"^-"!>(! =B,2!<)! | %464
w: |||||
w: |||||
w: |||||
w: |||||
 C2!>)! z2 z4 |!f! z2 E2 D2 C2 | C4 B,2 z2 |!p!!<(! C4 A,2!>(! G,F,!<)!!>)! | C2 z2 z4 | %469
w: |||||
w: |||||
w: |||||
w: |||||
 z2!<(! D2!<)! E2 E2 | D4!>(! C4!>)! | B,4 z4 ||"^Tutti"!f! [C,C]8 | C2 z2 z4 | z2 E4 D2 | ^C4 D4 | %476
w: |||||||
w: |||||||
w: |||||||
w: |||||||
 D4 C4 | B,4 C2 CD | E4!>(! D4!>)! | C4!p!!<(! G,2 G,2!<)! | _A,4 _E,2 F,2 |!>(! G,6 C,2!>)! | %482
w: ||||||
w: ||||||
w: ||||||
w: ||||||
 C,4 z4 | z8 | z8 |] %485
w: |||
w: |||
w: |||
w: |||
V:3
 x8 | x8 | x8 | x8 || x8 | x8 | x8 | (C4 G4- | GA) (GF) E2 E2 | (F2 E2 D4) | E4 z4 | z8 | z8 | z8 | %14
w: |||||||Ky- *|* * ri- * e e-|lei- * *|son,||||
 (E2 G6- | GFG)A G2 G2 | A8 | G4 D4 | E8 | D8 || (G4 FG)AF | D4 E4 | x8 | x8 | (G4 FG)_AF | %25
w: |||||||||||
 D4 E2 G2 | G4 F2 B2 | G8 | G8 || (C4 G4- | GA) (GF) E2 G2 | ^F4 G2 =F2 | (EDEF D4) | E4 G4- | %34
w: |||||||||
 G2 ^F2 G2 G2 | (_A6 G2) | G4 G4 | (A6 G2) | G4 A4 | (G4 F2 E2 | D6!>(! =E2)!>)! | =E4 E4 | %42
w: ||||||||
 (F6 =E2) | =E4 z4 | x8 |][M:4/4] x4 E2 E2 | E4 E4 | E4 F4 | G3 E E4 | x2 B4 B2 | B6 _A2 | G6- F2 | %52
w: ||||||||||
 G4 x2 G2 | (G2 B4) B2 | B4 G2 G2 | (G2 FG) A2 B2 | c4 x4 | x2 A4 A2 | G6 G2 | G2 c2 c2 c2 | %60
w: ||||||||
 c4 c4 | B2 B2 B2 B2 | (B4 A4 | G4) F4 | G6 x2 | F4 F2 F2 | _G4 G2 G2 | F4 F4- | F2 x2 D2 E2 | %69
w: |||||||||
 (F4 B4) | =A4 E2 F2 | (G4 c4) | =B4 G2 G2 | G4 _B4 | B4 G2 G2 | ((F4 E4)) | D4 x4 | _G4 G2 G2 | %78
w: |||||||||
 A6 B2 | _c6 c2 | (_c4 B2) B2 | G4 B4 | A4 E2 A2 | A4 A4 | G4 x4 | E4 E2 E2 | F6 G2 | A6 A2 | %88
w: ||||||||||
 A3 G G4 | c4 G4 | (A8 | B4 c4- | c4 =B2 =A2) | =B4 (D4 | E4) E2 E2 | F6 F2 | G4 G4 | F4 F4 | %98
w: ||||||||||
 B4 B2 B2 | A8 | G8 || x8 | x8 | x8 | x8 | x4 C2 C2 | G4 G2 GG | A2 G2 (FAdc) | =B6 x2 | x8 | x8 | %111
w: |||||||||||||
 x8 | x4 =B4- | B3 =B B4 | =B2 c2 d2 c2 | =B4 B4 | (c2 e4 c2) | =B4 x2 G2 | c2 cc d2 dd | %119
w: ||||||||
 e4 c2 x2 | G4 G4 | G4 D4 | E8 | D8 || x4 E4- | E3 E E2 E2 | E4 F4 | (G3 E) E4 | x2 B2 B2 B2 | %129
w: ||||||||||
 B3 B B2 A2 | G4 F2 F2 | G3 G G4 | x4 G2 G2 | G4 D4 | x8 | x8 | c4 G2 B2 | =A2 G2 (F2 E2) | %138
w: |||||||Cum San- cto|Spi- ri- tu, *|
 (D2 CB,) C2 F2 | F2 _A2 (G2 F2) | E4 E2 D2 | E2 A2 G2 G2 | G4 G2 G2 | G4 G4 | =A8 | =A4 x4 | %146
w: ||||||||
 x2 (E2 F2 G2 | A2 B2 c2 d2) | e4 (A4 | G8 | F8) | E4 x4 | x8 | x2 (E2 F2 G2 | A2 B2 c2 d2) | %155
w: |||||||||
 e4 A2 A2 | (G8 | F8) | E4 x4 | B8 | G2 x2 x4 |][M:3/4] G4 G2 | G2 F2 G2 | (A4 G2) | G4 G2 | %165
w: ||||||||||
 F4 F2 | E2 E2 E2 | (E2 D2 C2) | D2 G2 F2 | E2 D2 C2 | B4 A2 | G2 G2 G2 | B4 B2 | B4 =A2 | %174
w: |||||||||
 F2 x2 x2 | G4 G2 | A4 A2 | G4 G2 | G2 G2 B2 | (B6 | _A6 | G6) | G2 c2 BB | (A2 G2) F2 | %184
w: ||||||||||
 (B2 A2) G2 | F4 =E2 | F2 x2 x2 | x6 | A4 A2 | (c2 B2) A2 | G2 A2 x2 | A4 A2 | (A2 _dc) BA | %193
w: |||||||||
 (G2 B2) A2 | G4 x2 | A2 A2 A2 | G2 A2 x2 | B2 B2 B2 | B>B B2 x2 | A4 B2 | c2 c2 c2 | c4 c2 | %202
w: |||||||||
 B2 B2 x2 | z6 | z6 | z6 | z6 | z6 | z6 | z6 | z6 | z6 | z6 | z6 | z4 G2 | c2 c2 c2 | c>c c2 c2 | %217
w: |||||||||||||||
 =BB e2 dd | d2 c2 c2 | c2 B2 A2 | G2 G2 G2 | =A2 A2 A2 | (B6- | B6- | B2 =AG A2) | B6 || x6 | %227
w: ||||||||||
 E2 G2 B2 | c4 B2 | B2 x2 B2 | (B2 e2) dc | (d2 edcB) | B4 x2 | BB e2 B2 | (c2 A2) G2 | F4 x2 | %236
w: |||||||||
 ((G4 A2)) | B4 (AG) | (G2 F3) E | E4 x2 ||[M:4/4] (A4 e3) _d | (_c2 B2) A2 (c2 | B3) B B2 A2 | %243
w: |||||||
 (_G2 F2) E2 E2 | E3 E F2 _G2 | F4 B,2 (B2 | _G4) F4 | E4 _D4 | C4 C4 | =D8 || E4 E2 E2 | A6 A2 | %252
w: |||||||||
 G4 G2 G2 | G4 G2 c2 | =A4 A2 A2 | B2 =A2 F2 F2 | F4 F2 F2 | F4 F2 =A2- | A4 =A2 A2 | G4 G2 G2 | %260
w: ||||||||
 G4 G2 G2 | G3 G G2 G2 | c3 c F2 F2 | B3 B E2 EE | A4 G2 G2- | G4 G2 c2 | E6 D2 | D4 G2 G2 | %268
w: ||||||||
 G4 G4 | G4 G2 G2 | B4 B4 | x2 B2 B2 B2 | B8 | B8 | G4 F4 | G3 G G4 | (c4 B2) A2 | G3 G G4 | %278
w: ||||||||||
 B3 B B2 B2 | B6 B2 | B4 =B4 | c2 _B2 =A2 G2 | ^F4 F2 F2 | G8 | ^F4 x4 | z4 z2 B2 | c3 c c4 | %287
w: |||||||||
 =A4 A4 | =A6 A2 | G8 | G4 G4 | c2 =B2 c2 d2 | e4 c4 | c4 c4 | c3 c c4 | c4 B4 | =A8 | G6 G2 || %298
w: |||||||||||
[M:3/4] G4 G2 | G2 F2 G2 | A4 G2 | G4 G2 | F4 F2 | E>E E2 E2 | (E2 D2) C2 | D4 G2 | c>c c2 c2 | %307
w: |||||||||
 c2 c2 c2 | =B2 e2 d2 | d2 c2 x2 | cc B2 A2 | G2 G2 (G2 | =A4) A2 | (B6- | B6- | B2 =AG A2) | %316
w: |||||||||
 B2 B2 A2 | _G4 E2 | _CC C2 E2 | E4 E2 | E4 E2 | E6 | D4 F2 | G2 G2 G2 | A4 A2 | A3 A A2 | %326
w: ||||||||||
 A2 A2 B2 | B2 B2 A2 | G4 G2 | =A2 A2 A2 | (G6 | A6) | G2 x2 x2 | B6 | B2 x2 x2 | (A6- | A4 G2) | %337
w: |||||||||||
 G2 x2 x2 | x6 |][M:4/4] (G4 F2 G2 | EFGA B2 F2) | G4 z4 | z8 | z8 | z8 | (A4 G2) G2 | A3 A G2 z2 | %347
w: ||||||||||
 z4 z2 BA | G6 F2 | G8 || (c4 d4 | e4) c2 c2 | c4 B2 c2 | A4 G4 | x2 G6- | G3 G G4 | x2 F6- | %357
w: De- us||||||||||
 F3 F F4 | x2 E4 FF | (G2 C4 F2) | D4 x2 G2 | G4 G4 | _A6 A2 | (A2 G2 =A4) | B4 x2 G2 | G4 G4 | %366
w: |||||||||
 A6 c2 | =B4 G4 | x2 A4 G2 | (G2 FE F4) | G4 G2 G2 | (A2 E4 F2 | G8) | G4 x4 | x8 |] %375
w: |||||||||
[K:F][M:4/4] x8 | x8 | x8 | x8 | F6 F2 | E4 F2 x2 | B6 F2 | _G4 F2 B2 | (B2 A2) =G2 F2 | E4 E2 E2 | %385
w: ||||||||||
 F6 F2 | E4 x4 | E4 E4 | (F4 E2 D2 | C4) E2 E2 | F4 E2 D2 | E4 E2 G2 | F4 D2 A2 | G3 G G2 E2 | %394
w: |||||||||
 E4 F2 F2 | G6 G2 | G4 G4 | G4 F2 F2 | (E4 D2 C2 | D6) D2 | C4 x4 | x8 | x8 | x8 | x8 | z8 | %406
w: ||||||||||||
 z4 F2 F2 | F4 F2 FF | _G4 F2 F2 | =G4 G2 G2 | F4 F2 F2 | F6 F2 | F4 B4 | (A4 G4- | G4) F2 F2 | %415
w: |||||||||
 F4 E4 | F4 x2 F2 | E3 ^D E2 =F2 | (G2 A4 G2) | F4 x4 | x8 | x8 | x4 x2 F2 | F8 | F4 x2 B2 | B8 | %426
w: |||||||||||
 F4 x4 | x4 c2 [Ac]2 | ([G-=B]8 | [G_B]6 [FA]2) | [FA]4 F2 F2 | (F8 | c6 A2) | F4 x4 | x8 |] %435
w: |||||||||
[K:Eb][M:4/4] z2 c4 G2 | (E2 F2) E2 z2 | z2 G2 G2 GG | B4 F4 | (E2 FG!>(! A4)!>)! | G4 z4 || %441
w: ||||||
 z4 F2 F2 | G4 G4 | (F4 E4) | D4 x4 | x8 | x8 || x8 | x8 | x8 | x8 | x4 G2 G2 | G4 G4 | (G6 ^F2) | %454
w: |||||||||||||
 G4 x4 | x2 c4 G2 | (E2 F2) E2 x2 | x2 E2 E2 EE | F4 F4 | D8 | D4 x4 | x8 | x8 ||[K:C] (E4 F4) | %464
w: ||||||||||
 E2 z2 z4 | z2 (c2 A2) A2 | G4 G2 x2 | (E4 F4) | E2 z2 z4 | z2!<(! B4!<)! A2 | (A2 G4 ^F2) | %471
w: |||||||
 G4 x4 || (E4 F4) | E2 z2 z4 | z2 c4 _B2 | A4 A4 | G4 G4 | (F4 E2) A2 | (G4 F4) | E4 G2 G2 | %480
w: |||||||||
 _A4 (_E2 F2) | (G6 C2) | C4 x4 | x8 | x8 |] %485
w: |||||
V:4
 x8 | x8 | x8 | x8 || x8 | x8 | x8 | x8 | x8 | x8 | x8 | x8 | x8 | x8 | C,4 G,4- | %15
w: |||||||||||||||
w: |||||||||||||||
w: |||||||||||||||
w: |||||||||||||||
 G,A,G,F, E,2 C,2 | F,8 | G,4 G,4 | C,4 E,4 | !fermata!B,,8 || x8 | x8 | z8 | z8 | E,4 F,2 F,2 | %25
w: ||||||||||
w: ||||||||||
w: ||||||||||
w: ||||||||||
 B,4 E,2 E,2 | E,F,G,E, B,2 B,2 | C8 | G,8 || x8 | z8 | z8 | C,4 G,4- | G,A, G,F, E,2 C,2 | %34
w: |||||||||
w: |||||||||
w: |||||||||
w: |||||||||
 =A,,2 D,2 G,2 G,2 | F,6 E,2 | E,4 C4 | =B,6 C2 | C4 F,4 | G,8- | G,,8 | C,4 C,4 | F,,4 A,,2 C,2 | %43
w: |||||||||
w: |||||||||
w: |||||||||
w: |||||||||
 C,4 z4 | x8 |][M:4/4] x8 | x8 | x8 | x8 | x2 B,4 B,2 | E,4 B,4 | C4 A,4 | G,4 x2 G,2 | %53
w: ||||||||||
w: ||||||||||
w: ||||||||||
w: ||||||||||
 C2 B,A, G,2 F,2 | E,4 E,2 E,2 | _D4 C2 B,2 | A,4 A,2 A,2 | [F,A,]8 | [C,G,]6 [C,G,]2 | %59
w: ||||||
w: ||||||
w: ||||||
w: |||* ad- o-|ra-|* mus|
 [C,G,]2 C2 C2 B,2 | _A,4 =A,4 | B,2 z2 z4 | z2 G,2 A,G, A,B, | C4 A,2 B,2 | E,6 x2 | %65
w: ||||||
w: ||||||
w: ||||||
w: ||||||
 B,,4 B,,2 B,,2 | E,4 E,2 E,2 | B,,4 B,4- | B,2 x2 z4 | z4 B,2 B,2 | F,2 F,2 z4 | z4 C2 C2 | %72
w: |||||||
w: |||||||
w: |||||||
w: |||||||
 G,2 G,2 z4 | z4 _B,2 B,2 | E,4 E,2 E,2 | F,8 | B,,4 x4 | _G,4 G,2 G,2 | A,6 B,2 | _C6 C2 | %80
w: ||||||||
w: ||||||||
w: ||||||||
w: ||||||||
 _C4 B,2 B,2 | E,4 G,4 | A,4 A,2 A,2 | =D,4 F,4 | G,4 x4 | x8 | x8 | x8 | x8 | x4 C2 C2 | F,8 | %91
w: |||||||||||
w: |||||||||||
w: |||||||||||
w: |||||||||Je- su||
 G,4 A,4 | G,8 | G,4 z4 | z8 | z8 | z8 | z8 | E,4 E,2 E,2 | F,8 | !fermata!C,8 || z8 | z8 | z8 | %104
w: |||||||||||||
w: |||||||||||||
w: |||||||||||||
w: |||||||||||||
 z8 | z8 | x8 | x8 | z4 z2 G,2 | C,4!<(! E,2 G,2 | C4!<)! G,4 | G,3 A,!>(! B,4!>)! | G,6 z2 | x8 | %114
w: ||||||||||
w: ||||||||||
w: ||||Qui|tol- lis pec-|ca- ta|mun- * *|di,||
w: ||||||||||
 x8 | x8 | x8 | x4 x2 G,2 | C2 CC D2 DD | E4 C2 x2 | z4 C,2 C,2 | G,4 G,4 | E,8 | !fermata!B,,8 || %124
w: ||||||||||
w: ||||||||||
w: ||||||mi- se-|re- re|||
w: ||||||||||
 x8 | x8 | x8 | x8 | x2 B,2 B,2 B,2 | E,3 E, B,2 B,2 | C4 A,2 A,2 | G,3 G, G,4 | [C,G,]4 [C,G,]4 | %133
w: |||||||||
w: |||||||||
w: |||||||||
w: |||||||||
 [G,,G,]4 [G,,G,]4 | z8 | z8 | z8 | z8 | z8 | z8 | B,4 F,2 A,2 | G,2 F,2 E,2 D,2 | C,4 B,2 B,2 | %143
w: ||||||||||
w: ||||||||||
w: ||||||||||
w: ||||||||||
 =A,4 G,4 | ^F,8 | ^F,4 x4 | x2 E,2 F,2 G,2 | A,2 B,2 C2 D2 | E4 A,4 | B,8 | B,,8 | C,4 x4 | x8 | %153
w: ||||||||||
w: ||||||||||
w: ||||||||||
w: ||||||||||
 x2 E,2 F,2 G,2 | A,2 B,2 C2 D2 | E4 A,2 A,2 | B,8 | x8 | E,4 x4 | E,8 | E,2 x2 x4 |][M:3/4] z6 | %162
w: |||||||||
w: |||||||||
w: |||||||||
w: |||||||||
 z6 | z6 | z2 z2 E,2 | F,4 F,2 | C,2 C,2 C,2 | A,6 | G,2 x2 x2 | x6 | x6 | x2 E,2 E,2 | %172
w: ||||||||||
w: ||||||||||
w: ||||||||||
w: ||||||||||
 B,,2 D,2 E,2 | F,4 F,2 | B,2 x2 x2 | E,4 E,2 | A,4 A,2 | E,4 E,2 | E,2 E,2 G,2 | B,6 | F,6 | C6 | %182
w: ||||||||||
w: ||||||||||
w: ||||||||||
w: ||||||||||
 C2 x2 x2 | x6 | z6 | z6 | z6 | x6 | z6 | z6 | z6 | z6 | z6 | z6 | z6 | A,2 A,2 A,2 | E,2 A,2 x2 | %197
w: |||||||||||||||
w: |||||||||||||||
w: |||||||||||||||
w: |||||||||||||||
 E,2 E,2 E,2 | B,>B, E,2 x2 | C4 B,2 | A,2 A,2 A,2 | =A,4 A,2 | B,2 B,2 x2 | x6 | x6 | x6 | x6 | %207
w: ||||||||||
w: ||||||||||
w: ||||||||||
w: ||||||||||
 x6 | x6 | x6 | x6 | x6 | x6 | x6 | x6 | x6 | x6 | x6 | x4 A,2 | A,2 G,2 F,2 | C2 C2 C,2 | %221
w: ||||||||||||||
w: ||||||||||||||
w: ||||||||||||||
w: ||||||||||||||
 F,2 F,2 ^F,2 | G,4 _G,2 | F,6- | F,6 | !fermata!B,,6 || x6 | x6 | x6 | x6 | x6 | x6 | x6 | x6 | %234
w: |||||||||||||
w: |||||||||||||
w: |||||||||||||
w: |||||||||||||
 x6 | x6 | x6 | x6 | x6 | x6 ||[M:4/4] A,4 E3 _D | _C2 B,2 A,2 C2 | B,3 B, B,2 A,2 | %243
w: |||||||||
w: |||||||||
w: |||||||||
w: |||||||||
 _G,2 F,2 E,2 E,2 | E,3 E, F,2 _G,2 | F,4 B,,2 B,2 | _G,4 _D,4 | E,4 B,,4 | F,4 F,4 | %249
w: ||||||
w: ||||||
w: ||||||
w: ||||||
 !fermata!B,,8 || z8 | z8 | z8 | z4 z2 C2 | F,4 F,2 F,2 | F,2 F,2 F,2 F,2 | F,4 F,2 F,2 | %257
w: ||||||||
w: ||||||||
w: ||||||||
w: ||||||||
 F,4 F,2 F,2- | F,4 F,2 F,2 | C,4 C,2 C,2 | G,4 G,2 G,2 | G,3 G, G,2 G,2 | C3 C F,2 F,2 | %263
w: ||||||
w: ||||||
w: ||||||
w: ||||||
 B,3 B, E,2 E,E, | A,4 G,2 =B,2 | C4 C2 C2 | A,6 A,2 | G,4 G,2 G,2 | C,4 C4 | E,4 E,2 E,2 | %270
w: |||||||
w: |||||||
w: |||||||
w: |||||||
 B,,4 B,4 | x2 B,2 B,2 B,2 | E,8 | !fermata!B,8 | z8 | z8 | z8 | z8 | z8 | z8 | z8 | z8 | z8 | z8 | %284
w: ||||||||||||||
w: ||||||||||||||
w: ||||||||||||||
w: ||||||||||||||
 z4 ^F,2 F,2 | G,4 G,2 G,2 | F,3 F, F,4 | z8 | z4 F,2 F,2 | C8 | G,4 G,4 | C2 =B,2 C2 D2 | E4 C4 | %293
w: |||||||||
w: |||||||||
w: |||||||||
w: |||||||||
 C4 C4 | C3 C C4 | C4 B,4 | =A,8 | !fermata!G,6 z2 ||[M:3/4] z6 | z6 | z6 | z2 z2 E,2 | F,4 F,2 | %303
w: ||||||||||
w: ||||||||||
w: ||||||||||
w: ||||||||||
 !^!C,>C, C,2 C,2 | A,4 A,2 | G,4 x2 | x6 | x6 | x6 | x6 | A,A, G,2 F,2 | C2 C2 C,2 | F,4 ^F,2 | %313
w: ||||||||||
w: ||||||||||
w: ||||||||||
w: ||||||||||
 G,4 _G,2 | F,6- | F,6 | B,2 B,2 A,2 | _G,4 E,2 | _C,C, C,2 C,2 | _C,4 C,2 | _C,4 C,2 | _C,6 | %322
w: |||||||||
w: |||||||||
w: |||||||||
w: |||||||||
 B,,4 z2 | z6 | z6 | z6 | z2 z2 B,2 | E,2 G,2 B,2 | C4 C2 | F,2 F,2 F,2 | B,6- | B,6 | E,2 x2 x2 | %333
w: |||||||||||
w: |||||||||||
w: |||||||||||
w: |||||||||||
 B,6 | E,2 x2 x2 | B,6- | B,4 E,2 | E,2 x2 x2 | x6 |][M:4/4] x8 | x8 | x8 | x8 | x8 | A,4 G,4 | %345
w: ||||||||||||
w: ||||||||||||
w: ||||||||||||
w: ||||||||||||
 F,G,A,B, C2 B,2 | A,3 A, E,2 x2 | x4 x2 B,,B,, | C,D,E,F, G,2 A,2 | !fermata!G,8 || C4 D4 | %351
w: ||||||
w: ||||||
w: ||||||
w: ||||||
 E4 C2 C2 | C4 B,2 C2 | A,4 G,4 | x2 G,=A, =B,G,A,B, | C3 C C4 | x2 F,G, =A,F,G,A, | B,3 B, B,4 | %358
w: |||||||
w: |||||||
w: |||||||
w: |||||||
 x2 G,4 F,F, | E,4 F,4 | [B,,F,]4 z4 | z8 | z8 | z8 | z4 z2 E,2 | E,4 E,4 | A,6 A,2 | G,4 C4 | %368
w: ||||||||||
w: ||||||||||
w: ||||||||||
w: ||||||||||
 x2 F,2 G,2 A,2 | B,4!>)!!>(! B,,4 | E,4 E,2 E,2 | A,8 | x8 | E,4 x4 | x8 |][K:F][M:4/4] x8 | x8 | %377
w: |||||||||
w: |||||||||
w: |||||||||
w: |||||||||
 x8 | x8 | F,6 A,2 | B,4 A,2 x2 | B,4- B,2 B,2 | A,4 B,2 x2 | z8 | z8 | z8 | z8 | x2 C,4 C,2 | %388
w: |||||||||||
w: |||||||||||
w: |||||||||||
w: |||||||||||
 =B,,8 | C,4 C,2 C,2 | D,4 C,2 =B,,2 | C,4 C,2 E,2 | F,4 ^F,2 F,2 | G,3 G, G,2 ^G,2 | A,4 A,2 A,2 | %395
w: |||||||
w: |||||||
w: |||||||
w: |||||||
 =B,6 B,2 | =B,4 G,4 | C,4 F,2 F,,2 | G,,8- | G,,6 G,,2 | C,4 x4 | x8 | x8 | x8 | x8 | x8 | %406
w: |||||||||||
w: |||||||||||
w: |||||||||||
w: |||||||||||
 x4 A,2 A,2 | B,4 B,2 B,B, | A,4 B,2 B,2 | B,4 B,2 B,2 | A,2 F,2 G,2 A,2 | B,6 B,2 | B,4 B,4 | %413
w: |||||||
w: |||||||
w: |||||||
w: |||||||
 F,4 G,4 | E,4 F,2 F,2 | B,,4 C,4 | F,4 x4 | x8 | x8 | x4 x2 A,2 | F,3 G, A,2 B,2 | C2 D4 C2 | %422
w: |||||||||
w: |||||||||
w: |||||||||
w: |||||||||
 B,4 x2 B,,2 | B,8 | B,4 x2 B,2 | B,8 | B,4 x4 | x8 | x4 G,2 G,2 | C,6 F,2 | F,4 F,2 F,2 | F,8 | %432
w: ||||||||||
w: ||||||||||
w: ||||||||||
w: ||||||||||
 C6 A,2 | F,4 x4 | x8 |][K:Eb][M:4/4] x8 | x8 | x8 | x8 | x8 | x8 || x4 D,2 D,2 | E,4 E,4 | F,8 | %444
w: ||||||||||||
w: ||||||||||||
w: ||||||||||||
w: ||||||||||||
 B,,4 x4 | z8 | z8 || z8 | z8 | z8 | z8 | z4 =B,2 B,2 | C2 C,2 C,4 | D,2 E,2 C,2 D,2 | G,4 x4 | %455
w: |||||||||||
w: |||||||||||
w: |||||||||||
w: |||||||||||
 x2 C4 G,2 | E,2 F,2 E,2 x2 | x2 C,2 C,2 C,C, | B,,4 F,4 | G,4 A,4 | G,4 x4 | x8 | x8 ||[K:C] C,8 | %464
w: |||||||||
w: |||||||||
w: |||||||||
w: |||||||||
 C,2 x2 x4 | x2 C,2 F,2 ^F,2 | G,4 G,2 x2 | C,8 | C,2 x2 x4 | x2 G,2 C,4 | D,8 | G,4 x4 || x8 | %473
w: |||||||||
w: |||||||||
w: |||||||||
w: |||||||||
 C,2 x2 x4 | x2 C,2 E,2 G,2 | A,4 D,4 | B,,4 C,4 | G,2 ^G,2 A,2 F,2 | G,8 | [C,G,]4 G,2 G,2 | %480
w: |||||||
w: |||||||
w: |||||||
w: |||||||
 _A,4 _E,2 F,2 | G,6 C,2 | C,4 x4 | x8 | x8 |] %485
w: |||||
w: |||||
w: |||||
w: |||||
V:5
 x8 | x8 | x8 | x8 || x8 | x8 | x8 | x8 | x8 | x8 | x8 | x8 | x8 | x8 | x8 | x8 | x8 | x8 | x8 | %19
 x8 || x8 | x8 | x8 | x8 | x8 | x8 | x8 | x8 | x8 || x8 | x8 | x8 | x8 | x8 | x8 | x8 | x8 | x8 | %38
 x8 | x8 | G,8 | x8 | x8 | x8 | x8 |][M:4/4] x8 | x8 | x8 | x8 | x8 | x8 | x8 | x8 | x8 | x8 | x8 | %56
 x8 | x8 | x8 | x8 | x8 | x8 | x8 | x8 | x8 | x8 | x8 | x8 | x8 | x8 | x8 | x8 | x8 | x8 | x8 | %75
 x8 | x8 | x8 | x8 | x8 | x8 | x8 | x8 | x8 | x8 | x8 | x8 | x8 | x8 | x8 | x8 | x8 | x8 | x8 | %94
 x8 | x8 | x8 | x8 | x8 | x8 | x8 || x8 | x8 | x8 | x8 | x8 | x8 | x8 | x8 | x8 | x8 | x8 | x8 | %113
 x8 | x8 | x8 | x8 | x8 | x8 | x8 | x8 | x8 | x8 | x8 || x8 | x8 | x8 | x8 | x8 | x8 | x8 | x8 | %132
 x8 | x8 | x8 | x8 | x8 | x8 | x8 | x8 | x8 | x8 | x8 | x8 | x8 | x8 | x8 | x8 | x8 | x8 | x8 | %151
 x8 | x8 | x8 | x8 | x8 | x8 | x8 | x8 | x8 | x8 |][M:3/4] x6 | x6 | x6 | x6 | x6 | x6 | x6 | x6 | %169
 x6 | x6 | x6 | x6 | x6 | x6 | x6 | x6 | x6 | x6 | x6 | x6 | x6 | x6 | x6 | x6 | x6 | x6 | x6 | %188
 x6 | x6 | x6 | x6 | x6 | x6 | x6 | x6 | x6 | x6 | x6 | x6 | x6 | x6 | x6 | x6 | x6 | x6 | x6 | %207
 x6 | x6 | x6 | x6 | x6 | x6 | x6 | x6 | x6 | x6 | x6 | x6 | x6 | x6 | x6 | x6 | x6 | x6 | x6 || %226
 x6 | x6 | x6 | x6 | x6 | x6 | x6 | x6 | x6 | x6 | x6 | x6 | x6 | x6 ||[M:4/4] x8 | x8 | x8 | x8 | %244
 x8 | x8 | x8 | x8 | x8 | x8 || x8 | x8 | x8 | x8 | x8 | x8 | x8 | x8 | x8 | x8 | x8 | x8 | x8 | %263
 x8 | x8 | x8 | x8 | x8 | x8 | x8 | x8 | x8 | x8 | x8 | x8 | x8 | x8 | x8 | x8 | x8 | x8 | x8 | %282
 x8 | x8 | x8 | x8 | x8 | x8 | x8 | x8 | x8 | x8 | x8 | x8 | x8 | x8 | x8 | x8 ||[M:3/4] x6 | x6 | %300
 x6 | x6 | x6 | x6 | x6 | x6 | x6 | x6 | x6 | x6 | x6 | x6 | x6 | x6 | x6 | x6 | x6 | x6 | x6 | %319
 x6 | x6 | x6 | x6 | x6 | x6 | x6 | x6 | x6 | x6 | x6 | x6 | x6 | x6 | x6 | x6 | x6 | x6 | x6 | %338
 x6 |][M:4/4] x8 | x8 | x8 | x8 | x8 | x8 | x8 | x8 | x8 | x8 | x8 || x8 | x8 | x8 | x8 | x8 | x8 | %356
 x8 | x8 | x8 | x8 | x8 | x8 | x8 | x8 | x8 | x8 | x8 | x8 | x8 | x8 | x8 | x8 | x8 | x8 | x8 |] %375
[K:F][M:4/4] x8 | x8 | x8 | x8 | x8 | x8 | x8 | x8 | x8 | x8 | x8 | x8 | x8 | x8 | x8 | x8 | x8 | %392
 x8 | x8 | x8 | x8 | x8 | x8 | x8 | x8 | x8 | x8 | x8 | x8 | x8 | x8 | x8 | x8 | x8 | x8 | x8 | %411
 x8 | x8 | x8 | x8 | x8 | x8 | x8 | x8 | x8 | x8 | x8 | x8 | x8 | x8 | x8 | x8 | x8 | x8 | x8 | %430
 x8 | x8 | x8 | x8 | x8 |][K:Eb][M:4/4] x8 | x8 | x8 | x8 | x8 | x8 || x8 | x8 | x8 | x4 z4 | x8 | %446
 x8 || x8 | x8 | x8 | x8 | x8 | x8 | x8 | x8 | x8 | x8 | x8 | x8 | x8 | x8 | x8 | x8 ||[K:C] x8 | %464
 x8 | x8 | x8 | x8 | x8 | x8 | x8 | x8 || x8 | x8 | x8 | x8 | x8 | x8 | x8 | x8 | x8 | x8 | x8 | %483
 x8 | x8 |] %485
V:6
 x8 | x8 | x8 | x8 || x8 | x8 | x8 | x8 | x8 | x8 | x8 | x8 | x8 | x8 | x8 | x8 | x8 | x8 | x8 | %19
 x8 || x8 | x8 | x8 | x8 | x8 | x8 | x8 | x8 | x8 || x8 | x8 | x8 | x8 | x8 | x8 | x8 | x8 | x8 | %38
 x8 | x8 | x8 | x8 | F,4 x4 | x8 | x8 |][M:4/4] x8 | x8 | x8 | x8 | x8 | x8 | x8 | x8 | x8 | x8 | %55
 x8 | x4 x4 | x8 | x8 | x8 | x8 | x8 | x8 | x8 | x8 | x8 | x8 | x8 | x8 | x8 | x8 | x8 | x8 | x8 | %74
 x8 | x8 | x8 | x8 | x8 | x8 | x8 | x8 | x8 | x8 | x8 | x8 | x8 | x8 | x8 | x8 | x8 | x8 | x8 | %93
 x8 | x8 | x8 | x8 | x8 | x8 | x8 | x8 || x8 | x8 | x8 | x8 | x8 | x8 | x8 | x8 | x8 | x8 | x8 | %112
 x8 | x8 | x8 | x8 | x8 | x8 | x8 | x8 | x8 | x8 | x8 | x8 || x8 | x8 | x8 | x8 | x8 | x8 | x8 | %131
 x8 | x8 | x8 | x8 | x8 | x8 | x8 | x8 | x8 | x8 | x8 | x8 | x8 | x8 | x8 | x8 | x8 | x8 | x8 | %150
 x8 | x8 | x8 | x8 | x8 | x8 | x8 | x8 | x8 | B,8 | B,2 x2 x4 |][M:3/4] x6 | x6 | x6 | x6 | x6 | %166
 x6 | x6 | x6 | x6 | x6 | x6 | x6 | x6 | x6 | x6 | x6 | x6 | x6 | x6 | x6 | x6 | x6 | x6 | x6 | %185
 x6 | x6 | x6 | x6 | x6 | x6 | x6 | x6 | x6 | x6 | x6 | x6 | x6 | x6 | x6 | x6 | x6 | x6 | x6 | %204
 x6 | x6 | x6 | x6 | x6 | x6 | x6 | x6 | x6 | x6 | x6 | x6 | x6 | x6 | x6 | x6 | x6 | x6 | x6 | %223
 x6 | x6 | x6 || x6 | x6 | x6 | x6 | x6 | x6 | x6 | x6 | x6 | x6 | x6 | x6 | x6 | x6 ||[M:4/4] x8 | %241
 x8 | x8 | x8 | x8 | x8 | x8 | x8 | x8 | x8 || x8 | x8 | x8 | x8 | x8 | x8 | x8 | x8 | x8 | x8 | %260
 x8 | x8 | x8 | x8 | x8 | x8 | x8 | x8 | x8 | x8 | x8 | x8 | x8 | x8 | x8 | x8 | x8 | x8 | x8 | %279
 x8 | x8 | x8 | x8 | x8 | x8 | x8 | x8 | x8 | x8 | x8 | x8 | x8 | x8 | x8 | x8 | x8 | x8 | x8 || %298
[M:3/4] x6 | x6 | x6 | x6 | x6 | x6 | x6 | x6 | x6 | x6 | x6 | x6 | x6 | x6 | x6 | x6 | x6 | x6 | %316
 x6 | x6 | x6 | x6 | x6 | x6 | x6 | x6 | x6 | x6 | x6 | x6 | x6 | x6 | x6 | x6 | x6 | x6 | x6 | %335
 x6 | x6 | x6 | x6 |][M:4/4] x8 | x8 | x8 | x8 | x8 | x8 | x8 | x8 | x8 | x8 | x8 || x8 | x8 | x8 | %353
 x8 | x8 | x8 | x8 | x8 | x8 | x8 | x8 | x8 | x8 | x8 | x8 | x8 | x8 | x8 | x8 | x8 | x8 | x8 | %372
 x8 | x8 | x8 |][K:F][M:4/4] x8 | x8 | x8 | x8 | x8 | x8 | x8 | x8 | x8 | x8 | x8 | x8 | x8 | x8 | %389
 x8 | x8 | x8 | x8 | x8 | x8 | x8 | x8 | x8 | x8 | x8 | x8 | x8 | x8 | x8 | x8 | x8 | x8 | x8 | %408
 x8 | x8 | x8 | x8 | x8 | x8 | x8 | x8 | x8 | x8 | x8 | x8 | x8 | x8 | x8 | x8 | x8 | x8 | x8 | %427
 x8 | x8 | x8 | x8 | x8 | x8 | x8 | x8 |][K:Eb][M:4/4] x8 | x8 | x8 | x8 | x8 | x8 || x8 | x8 | %443
 x8 | F,4 x4 | x8 | x8 || x8 | x8 | x8 | x8 | x8 | x8 | x8 | x8 | x8 | x8 | x8 | x8 | x8 | x8 | %461
 x8 | x8 ||[K:C] x8 | x8 | x8 | x8 | x8 | x8 | x8 | x8 | x8 || x8 | x8 | x8 | x8 | x8 | x8 | x8 | %479
 x8 | x8 | x8 | x8 | x8 | x8 |] %485
V:7
 x8 | x8 | x8 | x8 || x8 | x8 | x8 | x8 | x8 | x8 | x8 | x8 | x8 | x8 | x8 | x8 | x8 | x8 | x8 | %19
 x8 || x8 | x8 | x8 | x8 | x8 | x8 | x8 | x8 | x8 || x8 | x8 | x8 | x8 | x8 | x8 | x8 | x8 | x8 | %38
 x8 | x8 | x8 | x8 | x8 | x8 | x8 |][M:4/4] x8 | x8 | G4 A4 | x8 | x8 | x8 | x8 | x8 | x8 | x8 | %55
 x8 | x8 | x8 | x8 | x8 | x8 | x8 | x8 | x8 | x8 | x8 | x8 | x8 | x8 | x8 | x8 | x8 | x8 | x8 | %74
 x8 | x8 | x8 | x8 | x8 | x8 | x8 | x8 | x8 | x8 | x8 | x8 | x8 | x8 | x8 | x8 | x8 | x8 | x8 | %93
 x8 | x8 | x8 | x8 | x8 | e4 e2 e2 | c8 | c8 || x8 | x8 | x8 | x8 | x8 | x8 | x8 | x8 | x8 | x8 | %111
 x8 | x8 | x8 | x8 | x8 | x8 | x8 | x8 | x8 | x8 | x8 | x8 | x8 || x8 | x8 | G4 A4 | x8 | x8 | x8 | %130
 x8 | x8 | x8 | x8 | x8 | x8 | x8 | x8 | x8 | x8 | x8 | x8 | x8 | x8 | x8 | x8 | x8 | x8 | x8 | %149
 x8 | x8 | x8 | x8 | x8 | x8 | x8 | x8 | x8 | x8 | x8 | x8 |][M:3/4] x6 | x6 | x6 | x6 | x6 | x6 | %167
 x6 | x6 | x6 | x6 | x6 | x6 | x6 | x6 | x6 | x6 | x6 | x6 | x6 | x6 | c6 | x6 | x6 | x6 | x6 | %186
 x6 | x6 | x6 | x6 | x6 | x6 | x6 | x6 | x6 | x6 | x6 | x6 | x6 | x6 | x6 | x6 | x6 | x6 | x6 | %205
 x6 | x6 | x6 | x6 | x6 | x6 | x6 | x6 | x6 | x6 | x6 | x6 | x6 | x6 | x6 | x6 | x6 | x6 | x6 | %224
 x6 | x6 || x6 | x6 | x6 | x6 | x6 | x6 | x6 | x6 | x6 | x6 | x6 | x6 | x6 | x6 ||[M:4/4] x8 | x8 | %242
 x8 | x8 | x8 | x8 | x8 | x8 | x8 | x8 || x8 | x8 | x8 | x8 | x8 | x8 | x8 | x8 | x8 | c4 c2 c2 | %260
 x8 | x8 | x8 | x8 | x8 | x8 | x8 | x8 | x8 | x8 | x8 | x8 | x8 | x8 | x8 | x8 | x8 | x8 | x8 | %279
 x8 | x8 | x8 | x8 | x8 | x8 | x8 | x8 | x8 | x8 | x8 | x8 | x8 | x8 | x8 | x8 | x8 | x8 | x8 || %298
[M:3/4] x6 | x6 | x6 | x6 | x6 | x6 | x6 | x6 | x6 | x6 | x6 | x6 | x6 | x6 | x6 | x6 | x6 | x6 | %316
 x6 | x6 | x6 | x6 | x6 | x6 | x6 | x6 | x6 | x6 | x6 | x6 | x6 | x6 | x6 | x6 | x6 | x6 | x6 | %335
 x6 | x6 | x6 | x6 |][M:4/4] x8 | x8 | x8 | x8 | x8 | x8 | x8 | x8 | x8 | x8 | x8 || x8 | x8 | x8 | %353
 x8 | x8 | x8 | x8 | x8 | x8 | x8 | x8 | x8 | x8 | x8 | x8 | x8 | x8 | x8 | x8 | x8 | x8 | x8 | %372
 x8 | x8 | x8 |][K:F][M:4/4] x8 | x8 | x8 | x8 | x8 | x8 | x8 | x8 | x8 | x8 | x8 | x8 | x8 | x8 | %389
 x8 | x8 | x8 | x8 | x8 | x8 | x8 | x8 | x8 | x8 | x8 | x8 | x8 | x8 | x8 | x8 | x8 | x8 | x8 | %408
 x8 | x8 | x8 | B6 B2 | B4 x4 | x8 | x8 | x8 | x8 | x8 | x8 | x8 | x8 | x8 | z4 z2 B2 | B8 | x8 | %425
 x8 | x8 | x8 | x8 | x8 | x8 | x8 | x8 | x8 | x8 |][K:Eb][M:4/4] x8 | x8 | x8 | x8 | x8 | x8 || %441
 x8 | x8 | x8 | x8 | x8 | x8 || x8 | x8 | x8 | x8 | x8 | x8 | x8 | x8 | x8 | x8 | x8 | x8 | x8 | %460
 x8 | x8 | x8 ||[K:C] x8 | x8 | x8 | x8 | x8 | x8 | x8 | x8 | x8 || x8 | x8 | x8 | x8 | x8 | x8 | %478
 x8 | x8 | x8 | x8 | x8 | x8 | x8 |] %485
V:8
!p!"^Larghetto""^Viol." z8 |"^Clar.Corni." z2"^Instrument change"!>(! (.[c=a]2 .[^G=b]2)!>)! z2 | %2
w: ||
[K:Eb]"^Instrument change" G,3!<(! ^F, G,D=F>!<)!E | E6 z2 || %4
w: ||
[K:Eb]!mf!"^Instrument change" _D2"^voll" _D,3 F,A,D |"^Instrument change" C2 C,3 =D,E,C, | %6
w: ||
"^Instrument change" G,6 =B,2 |"^Instrument change" C,4"^Instrument change" z4 | %8
w: ||
"^Instrument change" z8 |"^Instrument change" z8 | %10
w: ||
"^Instrument change" G,4 C4-"^Instrument change" | %11
w: |
"^Instrument change" CE"^Instrument change"DC B4 | %12
w: |
"^Instrument change" C2"^Instrument change" B2 =A4 | %13
w: |
"^Instrument change" B2"^Instrument change" B4 _A,2 | G,2 C4 =B2 | C3 D E2 E2- | E4 D2!>(! C2!>)! | %17
w: ||||
 =B4 z4 |!<(! z8!<)! | z8 ||!pp!"^Instrument change" G,4"^Instrument change" F,4 | %21
w: ||||
"^Instrument change" D,4"^Instrument change" E,2"^Instrument change" C2 | %22
w: |
"^Instrument change" =B4 =A4 |"^Instrument change" z4"^Instrument change" G4- | %24
w: ||
"^Instrument change" G4"^Instrument change" z4 | %25
w: |
"^Instrument change" z4"^Instrument change" z2!f! B2- | E4 D2 z2 | z4 CDEF | G8 || %29
w: ||||
[K:C]!f!"^a tempo" z8 |"^Instrument change" z8 |"^Instrument change" z8"^Instrument change" | %32
w: |||
"^Instrument change" z8 |"^Instrument change" E4 a4-"^Instrument change" | %34
w: ||
"^Instrument change" ac"^Instrument change"ba G2 G2 | %35
w: |
"^Instrument change"!<(! ^G6!<)!"^Instrument change" a2 | %36
w: |
"^Instrument change" a4"^Instrument change" z4 |[K:Eb]!ff!"^Instrument change" f6 e2 | e4 z4 | %39
w: |||
"^Instrument change" z8 |"^Instrument change" z8 |"^Instrument change" z4"^Instrument change" G4 | %42
w: |||
!<(!!<(! A6!<)!!<)!!>(!!>(! G2-!>)!!>)! | G4"^Instrument change" =E2"^Instrument change" E2 | %44
w: ||
"^Instrument change" =E4"^Instrument change" z4 |][M:4/4]!p!"^Allegro" b8- | %46
w: ||
"^Instrument change" b8"^Instrument change" | %47
w: |
"^Instrument change"!<(! c6!<)! d2"^Instrument change" | %48
w: |
"^Instrument change" e3 b"^Instrument change" b2"^Instrument change" G2- | %49
w: |
"^Instrument change" d2 z2 z4 |"^Instrument change" z8 |"^Instrument change" z8 | %52
w: |||
"^Instrument change" z4"^Instrument change" z2!f! G2 | c2 d2 e2 f2 | g4 z4 | e8- | e4 z4 | z8 | %58
w: ||||||
 z8 | z2!f! [c=e]4 [c-e]2 | f4 _e4 | d2 d2 edef | g4 (f4 | e6) d2 | e6 z2 | %65
w: |||||||
"^Instrument change" [dd']4"^Instrument change" [dd']2 [dd']2 | %66
w: |
"^Instrument change" [dd']4"^Instrument change" [cc']2 [cc']2 | %67
w: |
"^Instrument change" d4"^Instrument change" b4- | %68
w: |
"^Instrument change" b2"^Instrument change" z2 z4 | %69
w: |
"^Instrument change" z4"^Instrument change" [db]4 | [c=a]4"^Instrument change" z4 | %71
w: ||
"^Instrument change" z4"^Instrument change" [ce]4 | %72
w: |
 [d=b]4"^Instrument change" d2"^Instrument change" d2 | %73
w: |
"^Instrument change" _e4"^Instrument change" f4 | g2 e2 d2 c2 | b6 =a2 | b2!p! _A2 _G2 F2 | %77
w: ||||
!p!"^Instrument change" _G4- G4 |"^Instrument change" A6 [_Gb]2"^Instrument change" | %79
w: ||
"^Instrument change" [A_c']4- c'4-"^Instrument change" | %80
w: |
"^Instrument change"!>(! [A-c']4 [Ab]2!>)! [Ab]2"^Instrument change" | %81
w: |
!f!"^Instrument change" [e=g]4 e4 | c4 A2 c2 | f4 d4 | =b2 G2 F2 ED | %85
w: ||||
"^Instrument change" E8"^Instrument change" |"^Instrument change" F6 [EG]2"^Instrument change" | %87
w: ||
"^Instrument change" [FA]8-"^Instrument change" | %88
w: |
"^Instrument change" A3 G G4-"^Instrument change" | %89
w: |
"^Instrument change" G4-"^Instrument change" G2 z2 |"^Instrument change" z8 | %91
w: ||
"^Instrument change" z8 |"^Instrument change" z8 |"^Instrument change" z2 x2 G4- | %94
w: |||
"^Instrument change" G6 A2 |"^Instrument change" b8- |"^Instrument change"!<(! b6 c2!<)! | %97
w: |||
"^Instrument change" [db]8 |!f!"^Instrument change" [egb]8 | [Ac-f]8 | !fermata![Gc=e]8 || %101
w: ||||
!p!"^Larghetto" !/![ac']4"^Instrument change" !/![ac']4"^Instrument change" | %102
w: |
"^Instrument change" !/![ac']4"^Instrument change"!<(! !/![ac']4!<)! | %103
w: |
"^Instrument change" !/![ac']4"^Instrument change" !/![ac']4 | %104
w: |
"^Instrument change" !/![ac']4 b'b'!>(!b'b'!>)!"^Instrument change" | %105
w: |
"^Instrument change" !/![gc']4"^Instrument change" !/![gc']4 | %106
w: |
"^Instrument change" !/![g_b']4 !/![gb']4 |"^Instrument change"!<(! !/![_e_a]4 !/![fa]4!<)! | %108
w: ||
"^Instrument change"!>(! !/![dfg]4"^Instrument change" !/![dfg]4!>)! | %109
w: |
"^Instrument change" !/![ceg]4"^Instrument change"!<(! !/![ceg]4 | %110
w: |
"^Instrument change" !/![ceg]4!<)!"^Instrument change" !/![ceg]4 | %111
w: |
"^Instrument change" !/![egb]4 [efb][efb][dfb][dfb]"^Instrument change" | %112
w: |
"^Instrument change" [dg=b][dgb][dgb][dgb]"^Instrument change" [dgb]2 z2 | %113
w: |
"^Instrument change" z2 G2 =b2 d2 |"^Instrument change"!<(! g8-!<)! | %115
w: ||
"^Instrument change" g=b'd'b' g2 f2 |"^Instrument change" _e2 c2 G2 =a2 | %117
w: ||
"^Instrument change" d2"^Instrument change"!<)!!<(! [=E,=E]2"^Instrument change" [E,E]2 [E,E]2 | %118
w: |
!f!"^Instrument change" [=E=a]4 [^G=b]4"^Instrument change" | %119
w: |
"^Instrument change" [c=a]4 a2!p! a2"^Instrument change" | %120
w: |
"^Instrument change" =G4"^Instrument change" z4 |"^Instrument change" z8 |"^Instrument change" z8 | %123
w: |||
"^Instrument change" z8 ||[K:Eb]!p!"^Tempo I" b8- |"^Instrument change"!<(! b8!<)! | %126
w: |||
"^Instrument change" c6 d2"^Instrument change" | %127
w: |
"^Instrument change" e3 b"^Instrument change" b2!f!"^Instrument change" G2- | %128
w: |
"^Instrument change" d2 z2 z4 |"^Instrument change" z8 |"^Instrument change" z8 | [G=b]8 | z8 | %133
w: |||||
 z8 |"^Instrument change" z8"^Instrument change" |"^Instrument change" z8"^Instrument change" | %136
w: |||
[K:C]"^Instrument change" z8 |"^Instrument change" z8 |"^Instrument change" d4 a2 c2 | %139
w: |||
"^Instrument change" b2 a2 G2 F2 |[K:Eb]"^Instrument change" G4 A2 F2 | b6 =b2 | c8- | c8- | %144
w: |||||
 c6 d2 | e4 =a'4 | b'8 | [_Ad_a]8 | [eg]4 z4 | z8 | z8 | %151
w: |||||||
[K:C]"^Instrument change" z2"^Instrument change" [Ece]2 [Ddb]2 [Cca]2 | %152
w: |
"^Instrument change" [GBb]2 [FAa]2 [G,EG]2 [F,DF]2 |"^Instrument change" [CE]2 [G_b]6 | [F_A]8 | %155
w: |||
 [_EG]2 [EG]2 F4 | _E8- | E4 D4 | _E4 z4 |!ff! [_EG]8 | _E2 _E,2 z4 |][M:3/4]"^Allegro" _B6- | %162
w: |||||||
"^Instrument change" B6 |"^Instrument change" C4 _B2"^Instrument change" | %164
w: ||
"^Instrument change" _B4 B2"^Instrument change" |"^Instrument change" _A,4 A,2 | %166
w: ||
"^Instrument change" G,6 |"^Instrument change" G,2 F,4 | %168
w: ||
"^Instrument change" G,2"^Instrument change" E2 D2 |"^Instrument change" C2 B2 A2 | %170
w: ||
"^Instrument change" G4 F2 |"^Instrument change" E2"^Instrument change" _b2 c2 | d2 f2 _e2 | %173
w: |||
 d4 [c=a]2 | _b2 b2 d2 |!f!!f! _e6- | e2 c2 d2 | _e4 _b2- | b2 z2 z2 | z6 | z6 | z6 | %182
w: |||||||||
 z2"^Instrument change" c2"^Instrument change" _b2 | %183
w: |
"^Instrument change" _A2"^Instrument change" G2 F2 |"^Instrument change" _d2 c2 _b2 | %185
w: ||
"^Instrument change" _A2 G4 |"^Instrument change" F2"^Instrument change" c2 f2- | %187
w: ||
"^Instrument change" f2 _e2"^Instrument change" _d2 |"^Instrument change" c6"^Instrument change" | %189
w: ||
"^Instrument change" _e2"^Instrument change" _d2 c2 | %190
w: |
"^Instrument change" _b2"^Instrument change" c2 z2 | %191
w: |
"^Instrument change" c2"^Instrument change" _d2 _e2 |"^Instrument change" f3 _e _dc | %193
w: ||
"^Instrument change" _b2 _d2 c2 |"^Instrument change" _b4"^Instrument change" z2 | %195
w: ||
"^Instrument change" [_Ac]6 | [G_b]2 [_Ac]2 z2 | [_e_b]4 [eg]2 | [df]2 [_eg]2 z2 | _a4 g2 | f4 f2 | %201
w: ||||||
 _g2 f2 _e2 | d2 _b2 z2 |"^Instrument change" _b6 |"^Instrument change"!<(! _b2 c2!<)! d2 | %205
w: ||||
"^Instrument change" c6 |"^Instrument change" c2 G4- |"^Instrument change" G2 a2 G2- | %208
w: |||
"^Instrument change" G2 C2 C2 |"^Instrument change" F6 |"^Instrument change" E4 z2 | %211
w: |||
"^Instrument change" E4"^Instrument change" E2 | %212
w: |
"^Instrument change" E2"^Instrument change" D2 C2- | %213
w: |
"^Instrument change" C4 B2"^Instrument change" |"^Instrument change" C4!p!"^Instrument change" E2 | %215
w: ||
 a6 | b6 | b2 e2 d2- | d2 c2"^Instrument change" z2 | z6 | z2 z2!mf!"^Instrument change" _E2- | %221
w: ||||||
 E2 D2 C2 |!<(! _B4!<)! C2 | D6 | C6 | !fermata!_B6 ||"^Instrument change"!<(!!>(! _B6-!<)!!>)! | %227
w: ||||||
"^Instrument change" b2 z2"^Instrument change"!<(! [_e_b']2- | %228
w: |
"^Instrument change" b'2!<)! _a2"^Instrument change" g2 | %229
w: |
"^Instrument change" f2 d2"^Instrument change" f2 |"^Instrument change" [_eg]4 [dg][cg] | %231
w: ||
"^Instrument change" [df]2 [_eg][d_b']!>(! [c=a'][db']!>)! | %232
w: |
"^Instrument change" [d_b']2"^Instrument change"!<(! [d-f]2 [d^f]2!<)! | %233
w: |
"^Instrument change" [_eg]6 |"^Instrument change" [=eg]2 [f_a]2 [g_b']2 | %235
w: ||
"^Instrument change"!>(! _a2 g2!>)! f2 |"^Instrument change"!<(! [c_e]6!<)! | %237
w: ||
"^Instrument change" [_e_b]4 [_Ac][Ge] |"^Instrument change" _e2"^Instrument change" d3 e | %239
w: ||
"^Instrument change" _e4"^Instrument change" z2 || %240
w: |
[M:4/4]"^Instrument change" (3(_A_e_d) (3(_c'_bA) (3GAb (3_EFG | (3_AGA (3_bAb _c'2 c'2 | %242
w: ||
 (3_b_c'b (3_AbA (3_GAG (3FGF | (3_EF!>(!E (3_DED (3_cD!>)!c (3Bc_B | _G4 z2 G2 | F4- F2 _b2- | %246
w: ||||
 b4 z4 | z8 | z8 | z8 ||"^Allegretto" G4"^Instrument change" _A2 _b2 | %251
w: |||||
"^Instrument change"!<(! c2"^Instrument change" d2 _e2 f2!<)! |[K:C]"^Instrument change" G8 | %253
w: ||
"^Instrument change" c6!f!"^Instrument change" [c_e]2 | [c=a]8 | [d_b]2 [c=a]2 a4 | _b2 =a2 b2 c2 | %257
w: ||||
 =a6 c2 | c6 c2 | [c_e]8 | d6 z2 |"^Instrument change" z8 |"^cresc." z8"^Instrument change" | %263
w: ||||||
"^Instrument change" z8"^Instrument change" | F_EDC =B2!f!"^Instrument change" g2 | _e4 c2 z2 | %266
w: |||
 z8 | z4!f! [d=b]4 | [c_e]4 [Gc]4 | _b4 c4 | d6 d2- | d2 d6 |!ff! g8 | !fermata!f8 | %274
w: ||||||||
"^Instrument change" _b8"^Instrument change" |"^Instrument change" _b8 | %276
w: ||
"^Instrument change" _e4"^Instrument change" d2 c2 |"^Instrument change" _b8 | %278
w: ||
"^Instrument change" f3 _e d2 e2 |"^Instrument change" f4"^Instrument change" _e2 d2 |[K:C] e4 d4 | %281
w: |||
 c2 b2 a2 G2 | [^D^F-]8 |!>(! F8-!>)! | F4 z4 | z4 z2!mf! G2 | a8 | z8 | z8 | z8 | z8 | z8 | %292
w: |||||||||||
[K:Eb]!f!"^Instrument change" [ce]4 [Gc]4 | [c=a]8- | [ca]8- | [ca]4 [G-b]4 | [G=a-]4 [^Fa]4 | %297
w: |||||
 !fermata![DG]6!p!"^Instrument change" _B2 ||[M:3/4]"^Tempo I" _B6- |"^Instrument change" B6 | %300
w: |||
"^Instrument change" [_E,_A,C]4 [E,G,_B]2"^Instrument change" | %301
w: |
"^Instrument change" _B4 B2"^Instrument change" |"^Instrument change" _A,6 | %303
w: ||
"^Instrument change" (G,6 |"^Instrument change" G,2) F,4 | %305
w: ||
"^Instrument change" G,4!p!"^Instrument change" =E2 | =a6 | =b6- | b2 =e2 d2- | %309
w: ||||
 d2 c2"^Instrument change" =a2- | a2 G2 F2 | =E4!f!"^Instrument change" _E2- | E2 D2 C2 | %313
w: ||||
!<(! B4 C2!<)! | D6 | C6 | [F,B]2"^Instrument change" _b2"^Instrument change" _A2 | %317
w: ||||
"^Instrument change" _G4"^Instrument change" _E2 |"^Instrument change" C2 _E2 _A2 | %319
w: ||
"^Instrument change" c4 _b2 |"^Instrument change"!>(! _A2 G2 ^F2-!>)! | %321
w: ||
"^Instrument change"!<(! F6!<)! |"^Instrument change" G4!mf!"^Instrument change" B2 | %323
w: ||
"^Instrument change" BCDEFG |"^Instrument change" CD=EFGA |"^Instrument change" D3!<(! D _E2!<)! | %326
w: |||
"^Instrument change" F2"^Instrument change" B2!f!"^Instrument change" B2 | [EG]4 [DF]2 | [CE-]6 | %329
w: |||
 E2 D2 C2 | B6 | [DB]6 | [EB]2 z2 z2 | F6 | G2 z2 z2 | z6 | z6 | z2 [EB]2 [EB]2 | %338
w: |||||||||
 [EB]2 [G,,E,B,]2 z2 |][M:4/4]!p!"^Andante sostenuto" G,4"^Instrument change" F,2 G,2 | %340
w: ||
"^Instrument change" E,F,G,A,"^Instrument change" G2"^Instrument change" D2 | %341
w: |
"^Instrument change" =E4"^Instrument change" G2 ^G2 | =a4 =G2 a2 | %343
w: ||
 FG=ab"^Instrument change" c2"^Instrument change" G2 |"^Instrument change"!<(! =a8- | %345
w: ||
"^Instrument change" a2!<)!"^Instrument change" z2 z4 | %346
w: |
"^Instrument change" z4"^Instrument change" z2!f! G2 | %347
w: |
"^Instrument change" =a4"^Instrument change" G2 =b2 | %348
w: |
"^Instrument change" c6"^Instrument change" =b=a |"^Instrument change" !fermata!^G8 || %350
w: ||
[K:Eb]"^Maestoso" [G,-C]4 D4"^Instrument change" | [CE]4 [G,C-]4 | [A,C]4 B2 C2 | %353
w: |||
 [C,-F,A,]4 [C,E,G,-]4 | [D,G,=B,]2 z2 z4 | z4 z2 C2 | F2 z2 z4 | z4 z2 B2 | E2 E4 D2 | C8 | %360
w: |||||||
 B4 z4 | z8 | z8 | z8 | z4 z2 [G,B]2 | [G,B]8 | C3 D E2 F2 | G4 E2 E2 | F2 z2 z4 | z8 | %370
w: ||||||||||
 z4"^Instrument change" c4- |"^Instrument change" c6 =b2 | %372
w: |voll *|
"^Instrument change" c4"^Instrument change" z4 | %373
w: |
"^Instrument change" z4!p!"^Instrument change" G,2"^Instrument change" G,2 | %374
w: |
"^Instrument change" G,4"^Instrument change" z4 |] %375
w: |
[K:F][M:4/4]!p!"^Andante religioso" F,,3!<(! G,, A,C,F,!<)!G, | %376
w: |
[K:D]"^Instrument change"!>(! F3 E!>)!"^Instrument change" D2 z2 | %377
w: |
[K:F]"^Instrument change" ACFa"^Instrument change" c2 ^FD | ^F4!>)!!>(! E4 | D2 z2 z4 | %380
w: |||
 z4 z"^Instrument change"!<(! D"^Instrument change"^F!<)!a | %381
w: |
"^Instrument change" =b2"^Instrument change" z2 z4 | %382
w: |
"^Instrument change" z4 z2"^Instrument change" d2 | %383
w: |
"^Instrument change" d2 c2 b2"^Instrument change" a2 | %384
w: |
"^Instrument change" [Gg]8"^Instrument change" | %385
w: |
"^Instrument change" a2"^Instrument change" b2 c2 a2 | %386
w: |
"^Instrument change" G2"^Instrument change" E2 ^C2"^Instrument change" =B2 | %387
w: |
"^Instrument change" ^C8 |[K:F]"^Instrument change" z4!<(! G4!<)! | e4 c4 | z4 z2 G2- | G6 c2 | %392
w: |||||
 a4!<(! d4 | =b6!<)! e2 | c4- c2 f2- | f6 d2 | d4 z4 | z8 |[K:D]"^Instrument change" z8 | %399
w: |||||||
"^Instrument change" z8 | %400
w: |
"^Instrument change" z2"^Instrument change"!<(! G,2"^Instrument change" =C2!<)! E2 | %401
w: |
"^Instrument change" g2"^Instrument change"!<(! [eg]4!<)! [eg-]2 | %402
w: |
"^Instrument change" g2"^Instrument change" =f2 _b'2 a'2 | %403
w: |
"^Instrument change" G=F"^Instrument change"ED"^Instrument change" =C_BAG, | %404
w: |
"^Instrument change" =F,2"^Instrument change" =C,2 D,E,F,G, | %405
w: |
"^Instrument change" F2"^Instrument change" G2 a2 D2 | %406
w: |
"^Instrument change" F2 E2"^Instrument change" D4 |[K:F]"^Instrument change" B2 D2 F2 B2 | %408
w: ||
 D2 C2 B2 D2 |!f!!<(! [=G,=E]8!<)! | F4 _E4 | [DB]8- | [DB]4 z4 | z8 | z8 | %415
w: |||||||
 z8"^Instrument change" | z2"^Instrument change" =c2 =f2 ^f2 | E3 ^D E2 ^F2 | G2 a4 G2 | ^F6 A2 | %420
w: |||||
 z8 | =C2 D4 C2 | =B6 z2 |[K:F]!f!"^Instrument change" [Fdb]8 |"^Instrument change" [DFb]6 z2 | %425
w: |||||
"^Instrument change" [dfb]8 | [db]6!p!"^Instrument change" =b2"^Instrument change" | %427
w: ||
"^Instrument change" [^Fa]4"^Instrument change"!<)!!<(! c4 | %428
w: |
"^Instrument change"!<(! d8"^Instrument change" | e6!<)! f2 | f4 z4 | %431
w: |||
!ff!"^Instrument change"!<(! x4 _A_df_a!<)! |!>(! [fc'=a']8- | %433
w: |voll|
 [fc'a']4!>)!"^Instrument change" [CFA]2 [CFA]2 | %434
w: |
"^Instrument change" [CFA]4"^Instrument change" z4 |][K:Eb][M:4/4]"^Larghetto" c8- | c2 =b2 c2 A2 | %437
w: |||
[K:C]"^Instrument change" E8 |"^Instrument change" (G4 D4) | %439
w: ||
"^Instrument change" C2 DE"^Instrument change" FEDC | %440
w: |
"^Instrument change" B6"^Instrument change" z2 ||[K:Eb] E4 F4 | G2 z2 z4 | z8 | z2!p! D2 F2 ^F2 | %445
w: |||||
 G8- | G2 _A2 G2 F2 ||[K:C]"^Instrument change"!<(! G8-!<)! |"^Instrument change" G8 | %449
w: ||||
"^Instrument change" E8-"^Instrument change" | %450
w: |
"^Instrument change" E2 ^D^C D2"^Instrument change" z2 |[K:Eb] G8- | G4 z4 | z8 | z2 =b2 c2 d2 | %455
w: |||||
 [Ge]2 c6- | c2 =b2 c2 A2 | G4 z4 | z8 | z8 |!mf! z2"^Instrument change" g2 f2 [^c=e]2 | %461
w: ||||||
"^Instrument change" d2 c2 =b2 =a2 | G8"^Instrument change" ||[K:C] G4 z4 | z8 | z8 | %466
w: |||||
 z4 z2"^Instrument change" E,2- |"^Instrument change" E,4 z4 |"^Instrument change" z8 | %469
w: |||
"^Instrument change" z8 |"^Instrument change" z8 |"^Instrument change" z2!p! [DB]2 [^CA]2 [E,B]2 || %472
w: |||
[K:C]"^Instrument change" [C,-E,G,]4 [C,-F,A]4 | [C,E,G,]2 G,2 C2 E2 | G6- G2- | [^CG]4 [DF]4- | %476
w: ||||
 [DF]4 [CE]4 | [DB]4 [CA]2 z2 | z8 | z4"^voll"!p!!<(! [G,C-]4!<)! | [_A,C]4 C2 D2 | %481
w: |||||
!>(! [C=E]8-!>)! | [CE]4 z4"^Instrument change" |[K:A]"^Instrument change" ([E-e]6 [Ea]2) | %484
w: |||
"^Instrument change"!<(!!>(! !fermata!a8!<)!!>)! |] %485
w: |
V:9
 C,3!<(! =B, C,EA>!<)!G | G,6 z2 |[K:Eb] z8 | z2"^Instrument change"!>(! [F=a-]2 [=Ea]2!>)! z2 || %4
[K:Eb] [_D,A,]4"^Instrument change" z4 | [E,=A]4"^Instrument change" z4 | %6
 z2"^Instrument change" [C,E,]2 [G,,D,]2 G,,2 | C,4 G,4- | G,A,G,F,"^Instrument change" E,4 | %9
 F,2"^Instrument change" E,2 D,4 | E,4 G,4- | G,2 ^F,2 G,4- | G,6 ^F,2 | G,2 G,4 =F,2 | %14
 C,2 E,2 D,4 | [E,G,]F,G,A, G,2 G,2 | A,8 | G,4 z4 | x8 | x8 || E,4 C,4- | C,2 B,A,, G,,4 | %22
 G,4 =A4 | =A2 =BC B2 CD | =E4 z4 | z4 z2 G,2- | [G,B-]4 [F,B]2 z2 | z4 C4 | =B8 ||[K:C] A4 E4- | %30
 EFED C2 E2 | ^D4 E2 =D2 | CBCD"^Instrument change" B4 | C4 E4- | [EA]2 ^D2 E2 E2 | =F6 E2 | %36
 E4 x4 |[K:Eb] A6 G2 | G4 z4 | x8 | x8 | x4 [C-=E]4 | [C-F]6 [C=E]2- | [CE]4 C2 C2 | C4 z4 |] %45
[M:4/4] [EG]8- | [EG]8- | [EG]4 [FA]4 | [EG]4- [EG]2 [C=E]2 | [DG]2 x2 x4 | x8 | x8 | x4 x2 G2 | %53
 [EG]2 b4- d2- | [eb]4 x4 | E4- E4- | E4 x4 | x8 | x8 | x2 G4 G2 | [Fc]8 | b2 b2- b4- | b4 A4 | %63
 G4 F4 | G6 x2 | F4 F2 F2 | _G4 G2 G2 | F4 F4- | F2 x2 D2 E2 | F4 F4- | %70
 F4 _E2"^Instrument change" F2 | G4 G4- | G4 G2 G2 | G4 b4- | b4 G4 | F4- [EF-]4 | [DF]2 x2 x4 | %77
 [E-B]8 | [A,E]6 E2- | E4 [=DA]2 [E_G]2 | F4 [DF]2 [DF]2 | =G4 b4 | A4 E2 A2- | A8 | G2 x2 x4 | %85
 C8- | C6 C2- | C4 F2 E2 | [DF]4 [D=B]4 | C4- [CE]2 x2 | x8 | x8 | x8 | x4 =B4 | E8 | F8 | G8 | %97
 F8 | x8 | x8 | x8 || !/!f4 !/!f4 | !/!f4 !/!f4 | !/!f4 !/!f4 | !/!e4 [ea][ea][eg][eg] | %105
 !/!e4 !/!_e4 | !/!d4 !/!d4 | !/!c4 !/!d4 | =b6"^Instrument change" z2 | x4 x4 | x8 | x8 | %112
 x6 [d=b]2 | [d=b]3 [db] [db]4 | [d=b]2 [c_e]2 [df]2 [ce]2 | [d=b]4 [db]4 | c2 [eg]4 [ce]2 | %117
 =b2 x6 | C4 =E4- | E4 [C=E]2 [CE]2- | [CE]4 x4 | x8 | x8 | x8 ||[K:Eb] [EG]8- | [EG]8- | %126
 [EG]4 [FA]4 | [EG]4- [EG]2 [C=E]2 | [DG]2 x2 x4 | x8 | x8 | D8 | x8 | x8 | G4 D2 F2 | %135
 E2 D2 C2 B2 |[K:C] a4 E2 G2 | ^F2"^Instrument change" E2 D2 C2 | %138
 B2"^Instrument change" AG, A2 D2 | G2 =F2 E2 D2 |[K:Eb] E6 D2 | E2 A2 G4- | [EG]8- | ([EG]8 | %144
 =a8-) | a4 [ce-]4 | [eb]8 | x8 | G4 x4 | x8 | x8 |[K:C] x8 | x8 | x2 [_E_B-]6 | [DB-]8 | %155
 B2 _B2 [_A,C]4 | [G,_B-]8 | [F,B-]8 | [_E,B]4 x4 | [G,_B]8 | [G,_B]2 x2 x4 |][M:3/4] G,6 | %162
 G,2 F,2 G,2 | _A,4 G,2 | G,4 G,2 | F,4 F,2 | _E,6- | E,2 D,2 C,2 | D2 B4 | A2 z2 A2 | %170
 D2"^Instrument change" C2 D2 | C2 [_EG]4 | [F_b-]4 [Gb-]2 | [Fb]4 [_EF]2 | [DF]2 [DF]2 [F_A_b-]2 | %175
 [_EGb]6 | _A4- A2 | G4- G2- | G2 x2 x2 | x6 | x6 | x6 | x2 E2 FG | F2 C2 F2 | _b2 _A2 G2 | %185
 F4 =E2 | F2 [Fc]4 | _b6 | _A6 | c2 _b2 _A2 | G2 _A2 x2 | _A6- | A2 _dc _b_A | G2 _b2 _A2 | %194
 [_EG]4 x2 | _E6- | E4 x2 | G4 _b2- | b2- b2 x2 | [_A_e-]4 [e_b]2 | c4 c2 | c6 | _b2 F2 x2 | G6 | %204
 F4 [F_b]2 | [CF]6 | [CE]6 | [DB]6 | [G,C]6 | [CA]2 [DB]2 [CA]2 | [^G,B]4 x2 | C4 A2 | A6 | G,6- | %214
 G4 z2 | a6- | a6 | ^G2 c2 b2- | B2 A2 a2- | a2 G2 F2 | E4 G,2 | =A6 | _B4- B2 | [F,_B-]6 | %224
 B2 =AG, A2 | [D,F,]6 || G,6- | G2 x2 _b2 | [ce-]4 [e_b]2 | [d_b]2 [Fb]2 [db]2 | _b4 bb- | b4 F2- | %232
 F2 _b4- | b6 | c6 | [cf]2 [c_b]2 [_Ac]2 | G4 _A2 | E4- E2 | [G_b]2 [Fb]3 [_EGb] | [_EG_b]4 x2 || %240
[M:4/4] x8 | x8 | x8 | x8 | [=C_E]4 x2 [CE]2 | =D4- D2 [DF]2 | [_D_G]4 x4 | x8 | x8 | x8 || _E8 | %251
 _A8 |[K:C] E8 | E6 G2 | F8- | F4 F4- | F6 G2 | F6 [Fa]2 | =a6 [Fa]2 | G8 | [G=b]6 x2 | x8 | x8 | %263
 x8 | x4 x2 G2- | G4- G2 x2 | x8 | x4 G4- | G4 _E4 | [_EG]4- [EG]4 | [F_b]6 [Fb]2- | [Fb]2 _b6- | %272
 b8- | b8 | G4 F4 | G8 | c4 _b2 _A2 | G8 | _b8- | b8 |[K:C] G4 ^G4 | a2 =G2 ^F2 E2 | x8 | E8 | %284
 ^D4 x4 | x4 x2 B2 | D8 | x8 | x8 | x8 | x8 | x8 |[K:Eb] G4 E4- | E8- | E8 | D4 D4 | E4 D2 C2 | %297
 B,6 G,2 ||[M:3/4] G,6- | G,2"^Instrument change" F,2 G,2 | x6 | G,4 G,2 | F,6 | _E,6- | %304
 E,2 D,2 C,2 | D4 =E2 | =a6- | a6 | ^G2 c2 =b2- | =B2 =A2 C2- | C2 ^C2 D2 | =C4 G,2 | =A6 | B6- | %314
 [F,B]6- | F,6 | D2 b2 A2 | _G4 E2 | _A,4 C2- | C6- | C6- | C6 | =B4 F,2 | [G,B]6 | [A,C]6 | %325
 [A,B]6 | [A,B]4 B2- | B4 A,2 | G,6 | [F,=A]6 | G,6 | [F,A,]6 | [E,G,]2 x2 x2 | B6- | B2 x2 x2 | %335
 x6 | x6 | x2 [E,G,]2 [E,G,]2 | [E,G,]2 x2 x2 |][M:4/4] E,4 D,4 | E,4- C2 =B2 | C4 =E2 D2 | %342
 C6 =E2 | D,4 C4 | C4"^Instrument change" ^C4 | D2 x2 x4 | x4 x2 =E2 | F4 =E2 GF | [C=E]6 D2 | %349
 =E8 ||[K:Eb] E,4 G,4- | G,4 E,4- | E,4- [E,G,]4 | x8 | x8 | x4 x2 G,2 | =A2 x2 x4 | x4 x2 F,2 | %358
 E,2 E,4 F,2 | G,4 F,2- [E,F,-]2 | [D,F,]4 x4 | x8 | x8 | x8 | x4 x2 E,2 | (E,8 | A,6) C2 | %367
 =B4 G,2 [G,C-]2 | [A,C]2 x2 x4 | x8 | x4 [C-=E]4 | [CF]6 [DF]2 | [C=E]4 x4 | x4 _E,2 E,2 | %374
 _E,4 x4 |][K:F][M:4/4] x8 |[K:D] C4 D2 x2 |[K:F] x4 [C,F,]2 ([DA]2 | D4) [^CA-]4 | A2 x2 x4 | x8 | %381
 [DG]2 x2 x4 | x4 x2 b2 | b2 a2 G2 F2 | E8 | F8 | E2 A6 | ^C4 z4 |[K:F] F4 E2 D2 | E8 | F4 E2 D2 | %391
 E6 G2 | F4 D2 a2 | G6 E2 | E4 F2 F2 | G6- G2 | G4 x4 | x8 |[K:D] E8- | E8- | A4 z4 | z2 =c4 c2 | %402
 d2 =c2 [ce]2 [c=f]2 | [=F,D]2 z2 [=C,E,_B,]4 | [=C,A,]2 A,2 _B,C,D,E, | D6- D2 | C,4 D4- | %407
[K:F] F,8 | _G,4 F,4 | x8 | F,8 | F,8- | F,4 x4 | x8 | x8 | x8 | x2 [=C=Fa]4 D2 | ^C3 ^B, C2 =D2 | %418
 E2 ^F4 E2 | [DA]6 ^F,2 | x8 | A2 =B4 A2 | G,6 x2 |[K:F] z"^Instrument change" ABD Fbdf | x6 x2 | %425
 F8 | F6 [DE]2 | D4 a4 | [G=b]8 | [G_b]6 [Fa]2 | [Fa]4 x4 | x4 x2 F_A | [Fc=a]8- | [Fca]4 x4 | %434
 x8 |][K:Eb][M:4/4] E8- | E2 F2 E2 F2 |[K:C] C8- | C6 B2 | A2 BC DCBA- | A2 ^G,^F, G,2 x2 || %441
[K:Eb] C4 B4 | E2 x2 x4 | x8 | x2 D6 | E8- | E6 D2 ||[K:C] C8 | B8 | C8 | B6 x2 |[K:Eb] [D=B]8 | %452
 [CE]4 x4 | x8 | x2 D2 E2 F2 | E2 E6- | E2 F2 E2 F2 | E4 x4 | x8 | x8 | z4 z2 [G_b]2 | %461
 [F=a]2 [=EG]2 [DF-]2 ([CF-]2 | F6) =ED ||[K:C] E4 x4 | x8 | x8 | x4 x2 B,^B,, | ^C,4 x4 | x8 | %469
 x8 | x8 | x8 ||[K:C] x8 | x2 z2 z4 | z2 [CE]4 [D_B]2 | A4- A4 | G,4- G,4 | F,4 E,2 x2 | x8 | %479
 x4 =E,4 | _E,4 E,2 F,2 | [=E,G,-]8 | G,4 x4 |[K:A] x8 | E8 |] %485
V:10
 z8 | z8 |[K:Eb] z8 | z2 C,4 z2 ||[K:Eb]"^P" A,,4 z4 | C,4 z4 | z2!>)!!>(! G,,2 F,,4 | %7
w: |||||||
w: |||||||
 E,,4"^Man." z2 C,2 | D,4 C,4- | C,6 =B,2 | C,=B,C,D, E,D,C,_B, | =A,2 D,2- D,B,A,G,, | %12
w: |||||
w: |||||
 =A,2 B,2 C,2 D,2 | G,,2!<(! G,,2 _A,,2!<)!"^P" B,2 |!f! C,,4 G,,4 | z4 z2 C,2- | %16
w: ||||
w: ||||
 C,2 D,E, F,2 E,2 | D,4 z4 | z8 | x8 ||"^Man." B,4 z4 | F,,4 E,,2 z2 | G,,4- G,,4 | %23
w: |||||||
w: |||||||
 =A,4 _B,2 C,D, | _E,4 z4 | z4 z2 B,2- | B,4- B,2 z2 | z4 E,4 | D,8 ||[K:C] z8 | E4 a4- | %31
w: ||||||||
w: ||||||||
 acba G2 ^F^G |"^P"!f! a6 ^G2 | a6 x2 | x2 ^F2 E2 b2- | b6 a2 | a4 z4 |[K:Eb] D6 E2 | E4 z4 | %39
w: ||||||||
w: ||||||||
 =E8- | E8- | z4!p! C,4 | F,,4 A,,2 C,2- | C,4!p! C,2 C,2 | G,4 z4 |][M:4/4]"^Man." C8- | C6 =B2 | %47
w: ||||||||
w: ||||||||
 =A2 =a2- a2 G2 | C4- C2"^P"!f! E,2 | D2 z2 z4 | z8 | z8 | z4 z2 G,2 | C2 BA, G,2 F,2 | E,4 z4 | %55
w: ||||||||
w: ||||||||
 _D,4 C,2 B,2 | A,,4 z4 | z8 | z8 | z2 C4 B2 | _A,4 =A4 | F2 B2 CBCD | E2 B2 CBCD | E4 C2 B2- | %64
w: |||||||||
w: |||||||||
 B6 z2 |!p! G,4 G,2 G,2 | G,4 G,2 G,2 | G,4 =B4- | B2 z2!<)!!<(! G,2 =A2 | =B4!f! x4 | x4 =A2 =B2 | %71
w: |||||||
w: |||||||
 C4 C2 C2 | G,2 G,2 ^G,2 G,2 | =A4 D4 | E2 C2 F2 E2 | D4 C4 |"^Man." B2 _A,2 _G,2 F,2 | %77
w: ||||||
w: ||||||
"^P" C,2 D,2 C,2 _B,2 |!<(! _A,,2 _B,2 A,,2!<)! G,,2 | F,,2 _E,,2 D,2 C,2 | =B,2 D,2 G,2 G,2 | %81
w: ||||
w: * Clar.Cornu. * *||||
 [EB]4 E4- | E4 C2- C2 | =D8- |"^Man." D2!p! z2 z4 |"^Man." [=A,=A]2 =B2 A2 G,2 | %86
w: |||||
w: |||||
 F,2 G,2 F,2!<(! =E,2 | D,2 C,2!<)! =B,2 =A,2 | ^G,,2 =B,2 =E,2 D,2 |!>(! C,4 =A,2!>)! z2 | z8 | %91
w: |||||
w: |||||
 z8 | z8 | z4!mf! ^G,4 | =A8 | =B8 | C8 | G,8 |"^P" E8 | C8- | [G,C]8 || z4 z2 F,2 | F,4 A,2 C2 | %103
w: ||||||||||||
w: ||||||||||||
 F4 C4 | C3 _D E4 | C4 =A2 A2 | =E8 | F2 =E2 z4 | z4 z2 G,2 | C,4 E,2 G,2 | C4 G,4 | %111
w: ||||||||
w: ||||||||
 G,3 A,!>(! B4!>)! | G,4 =E4- | E8- | E8- | E8- | E8- | E2 z2 z4 | %118
w: |||||||
w: |||||||
"^voll""^P" (3=A,=E,D, (3C,=B,A, (3^G,,F,E, (3D,C,B, | (3=A,C,D, (3=E,^F,^G, =A2 A2 | C4 z4 | z8 | %122
w: ||||
w: ||||
 z8 | z8 ||[K:Eb]"^Man." C8- | C6 =B2 | =A2 =a4 G2 | C4- C2"^P" E,2 | D2 z2 z4 | z8 | z8 | G,8 | %132
w: ||||||||||
w: ||||||||||
 z8 | z8 |!f! z ^F,G,=A =BG,AB | CG,=BG, CDE=E |[K:C] =A2 G,F, =E,4 | F,2 G,2 =A4 | _B2 =AG, A4 | %139
w: |||||||
w: |||||||
"^P" _B8 |[K:Eb] B4- B4- | B4 E2 x2 | C,4 B4 | =A4 G,4 | E6 D2 | C4 [CE-]4 | [EB-]8 | [DB-]8 | %148
w: |||||||||
w: |||||||||
 [EB]4 z4 | z8 | z8 |[K:C] z2"^P"!f! C,6 | D,,8 | G,,2 [_E,_B,-]6 | [F,,D,B,-]8 | [_E,B,]2 x6 | %156
w: ||||||||
w: ||||||||
 _B,8 | _A,,8 | G,,4 z4 | [_E,_B,]8 | [_E,_B,]2 [G,,B,]2 z4 |][M:3/4]!p! C6- | C2 =B2 C2 | %163
w: |||||||
w: |||||||
 F,2 =A2 C2 | C4 C2 | =A6- | A6- | A6 | ^G2!mf! E4- | E6 | G6- | G2"^P"!mf! x4 | _B,2 D,2 _E,2 | %173
w: ||||||||||
w: ||||||||||
 F,6 | _B,2 _B2 B2 | _E,6 | C4 _c2 | _B4 _E2- | E2 z2 z2 | z6 | z6 | z6 | z2"^Man." A4 | A4- A2 | %184
w: |||||||||||
w: |||||||||||
 G,6 | A6 | F,2!p! x4 | G4 c2 | F4 F2- | F2 G2 a2 | c2 F2 z2 | F2 G2 a2 | _b6 | c4 F2 | C4 z2 | %195
w: |||||||||||
w: |||||||||||
"^P"!f! [_A,,_A,]6 | _E,2 [_A,,_A,]2 z2 | _E,4 E,2 | _B2 _E,2 z2 | _E4- E2- | E4 _E2 | _E2 F2 _G2 | %202
w: |||||||
w: |||||||
 F2 =D2 z2 |!pp! C6 | B6 | A,6 | G,,6 | F,,6 | E,,6 |!>(! D,,6!>)! | E,,4 z2 | A,4 C,,2- | %212
w: ||||||||||
w: ||||||||||
 C,,2 D,,2 E,,2 | E,,2 =F,,4 | E,4 z2 | ABCABC | DEFED^D | E6 | F,4[K:bass]"^Man." C2- | %219
w: |||||||
w: |||||||
 C2 ^C2 D2 | =C4"^P" C,2- | C,2 F,2 _E,2 |"^voll" D,4 =E,2 | F,,6- | [F,,,F,,]6 | _B,6 || C6- | %227
w: ||||||||
w: ||||||||
 c2 z2[K:treble] =E2 | F4 C2 |!>(! G4!>)!!<(! G2!<)! |"^Man." C6 | G,2 C2 DG, | G,2 G,4 | C6 | %234
w: |||||||
w: |||||||
 =A6 | D6 | =A6 | =E,4 F,2 | G2 F3 =E | =E4 z2 || %240
w: ||||||
w: ||||||
[M:4/4]"^Man."!f! (3_A,_E_D (3_c_BA, (3G,A,B (3_E,F,G, | (3_A,G,A, (3_BA,B _c2 A,2 | %242
w: ||
w: ||
 (3_B_cB (3_A,BA, (3_G,A,G, (3F,G,F, | (3_E,F,E, (3_D,E,D, (3_CD,C (3_B,CB, | =A,4 z2"^P"!<(! A,2 | %245
w: |||
w: |||
 F,4!<)! _B2 B2 | _G,4 z4 | z8 | z8 | z8 ||!p! C4 D2 =E2 | F2 G2 =a2 =b2 |[K:C] c8 | a6 C,2 | %254
w: |||||||||
w: |||||||||
 F,8- | x4 C4 | D2 C2 D2 =E2 | C6 x2 | F6 C2 | C8 | G,6"^Man." z2 |!p! G,=A_B=B CD_EC | %262
w: ||||||||
w: ||||||||
!<(! _A,_BCA, DCBA, |!<(! G,_A,_BG, CBA,!<)!G, | F,_E,D,C,!<)! =B,2"^voll""^P" D2 | _E4- E2 z2 | %266
w: ||||
w: ||||
 z8 | z4"^P""^voll" G,4 | C,4 C,4 | _E,4 E,4 | [_B,_B]6 [B,B]2- | [B,B]2 F6- | F4 _E4 | D8 | %274
w: ||||||||
w: ||||||||
!p! C6 =B2 | C8 | F,4 G,2 =A2 | C8 | =B3 =A G,2 A2 | =B4 =A2 G,2 |[K:C] C4 B4 | A8 | B8- | %283
w: |||||||||
w: |||||||||
 B2 ^A^G, A4 | B4!p! [^D,^F,]4 | [E,G,]6 G,2 | ^F,8 | z8 | z8 | z8 | z8 |"^P" z8 | %292
w: |||||||||
w: |||||||||
[K:Eb] C,2 D,2 E,2 C,2 | =A,2 B,2 C,2 A,2 | ^F,2 G,2 =A2 G,2 | ^F,4 G,4 | C,4 D,4 | x4 x2 C2 || %298
w: ||||||
w: ||||||
[M:3/4] C6- | C2 =B2 C2 | F,2 =A2 C2 | C4 C2 | =A6- | A6- | A6 | ^G4 z2 | =A=BCABC | D=EFED^D | %308
w: ||||||||||
w: ||||||||||
 =E6 | =F,4[K:bass] =A2- | A6- | A4 C,2- | C,2 F,2 E,2 |"^voll" D,4 =E,2 | F,,6- | F,,6 | %316
w: ||||||||
w: ||||||||
 [F,B]2 G,2 =F,2 | _E,4 C,2 |!<(! _E,,6-!<)! | E,,6 | _E,,6- | E,,2 D,,2 C,,2 | D,,4 =B2 | C6 | %324
w: ||||||||
w: ||||||||
 F,6 | G,4 =A2 | =B4"^voll" B,2 |"^P" E,2 B,2 D,2 | C,6- | C,2 D,2 E,2- | E,6 | B,6- | B,2 z2 z2 | %333
w: |||||||||
w: |||||||||
 D,6 | E,2 z2 z2 | z6 | z6 |!f! E,,2 B,2 G,,2 | E,,2 E,,2 z2 |][M:4/4]"^Man." G,,4 F,,4 | %340
w: |||||||
w: |||||||
 =E,,4 G,,4- | G,,4 C,2 =B,2 | =A4 =E,2 C,2 | D,,=E,,F,,G,, =A,2"^P" E,,2 | =A,4 G,,2 A,2 | %345
w: |||||
w: |||||
 F,,2 z2 z4 | z4 z2 C,2 | F,,4 C,2 x2 | =A,6- A,2 | =B,8 || %350
w: |||||
w: |||||
[K:Eb]"^P"!f! C,,"^voll"=B,,C,,G,,, B,,=A,,B,,G,,, | C,,G,,,=A,,=B,, C,,D,,E,,C,, | %352
w: ||
w: ||
 _A,,,G,,,A,,,E,,, G,,,F,,,G,,,E,,, | F,,,G,,,A,,,B,, C,,D,,E,,C,, | G,,,2 z2 z4 | z4 z2 E,2 | %356
w: ||||
w: ||||
 C,2 z2 z4 | z4 z2 D,2 | B,2 B,4- B,2- | B,4 =A,4 | B,4 z4 | z8 | z8 | z8 | z4 z2"^P"!f! E,,2 | %365
w: |||||||||
w: |||||||||
 E,,8 | E,3 D, C,2 C,2 | D,4 E,2 C,2 | F,,2 z2 z4 | z8 | z4 _B4 | C4 _c4 | _B4 z4 | z4 G,2 G,2 | %374
w: |||||||||
w: |||||||||
 G,4 z4 |][K:F][M:4/4]"^Man." z8 |[K:D] _b4 a2 z2 |[K:F] z4 ^F,,A,D,^F, | A4 G,4 | ^F,2 z2 z4 | %380
w: ||||||
w: ||||||
 z4 z D^Fa | G2 z2 z4 | z8 | z4 z2 F,2 | C2 B2 A2 G,2 | F,2 G,2 A2 =B2 |"^P" C2!p! E,4 =F,2 | %387
w: |||||||
w: |||||||
 G,8- |[K:F] [G,-=B,]8 | G,8- | G,8 | G,4 C2- C2- | C4 A2 D2 | D6 =B2 | C4- C2 C2 | D6 D2 | D4 z4 | %397
w: ||||||||||
w: ||||voll * *||||||
 z8 |[K:D] z8 | z8 | z8 | z2 A2 C2 E2 | =G2 F2 E2 D2 | [G,,B,]2"^Man." z2[K:bass]!>)!!>(! A,4 | %404
w: |||||||
w: |||||||
 D,,2 z2 z4 | D2 E2 F2 a2 | _B4 A4 |[K:F] [=D,B,]8 | _E,4 D,4 |"^P" _D,8 | C,2 A,2 B,2 C,2 | %411
w: |||||||
w: |||||||
 [D,B,]8- | [D,B,]4 z4 | z8 | z8 | x4!>)!!>(! C,4- |"^P" C2 x6 | A,8- | A,4- A,A,=B,^C, | %419
w: ||||||||
w: ||||||||
 D,D,,^F,,A, D,2 D,2 | [D,^F,]3 [E,G,] [F,A]2 [G,=B]2 | D,8- | D,6 z2 |[K:F] B8- | B6 z2 | D8 | %426
w: |||||||
w: |||||||
 D4 B2 =B2 | =C4 z4 | z4 D4 | C6- C2- | C4 z4 | F,_A,_D[I:staff -1]F[I:staff +1] x4 | F,4 z4 | %433
w: |||||||
w: |||||||
 z4!p! [C,F,]2 [C,F,]2 | [C,F,]4 z4 |][K:Eb][M:4/4]"^Man.""^Dolce 8" G,8- | G,2 A,2 G,2 A,_B | %437
w: ||||
w: ||||
[K:C] C8 | x4 _B4 | G,4!>(! z4!>)! | G,6 z2 ||[K:Eb]"^P""^voll"!f! G,4 B4- | B2 z2 z4 | z8 | %444
w: |||||||
w: |||||||
"^Man." z2 B6- | B8- | B2 C2 B2 A,2 ||[K:C] G,8 | F,4 G,4- | G,6!>(! C2 | =A6!>)! z2 | %451
w: |||||||
w: |||||||
[K:Eb]"^P" G,,8 | C,4 z4 | z8 | z2 D2 C2 =B2 | C2 G,6- | G,2 A,2 G,2 A,_B | C4 z4 | z8 | z8 | z8 | %461
w: ||||||||||
w: ||||||||||
 z2"^P" G,6 | C2 =B=A!>(! B4!>)! ||[K:C] C4 z4 | z8 | z8 | z4 z2!f!!>(! ^G,2!>)! | A4 z4 | z8 | %469
w: ||||||||
w: ||||||||
 z8 | z8 | z8 ||[K:C]"^voll""^P"!f! C,G,,E,,C,, C,A,F,,C,, | C,,2 z2 z4 | z2 C,,2 E,,2 G,,2 | %475
w: ||||||
w: ||||||
 A,4 D,,4 | B,,4 C,,4 | G,,2 ^G,,2 A,2 z2 | z8 | z4 [G,,C,]4 | [_A,,C,]4 [A,,C,-]4 | [C,,G,,C,]8- | %482
w: |||||||
w: |||||||
!p! [G,,C,]4"^Man." z4 |[K:A]!pp! E8- | E8 |] %485
w: |||
w: |||
V:11
 x8 | x8 |[K:Eb] x8 | z8 ||[K:Eb] F,,4 z4 | ^F,,4 z4 | z2 G,,,6 | C,,4 z2 E,,2 | %8
 =B,,4 C,,D,,E,,C,, | A,,2 G,,2 F,,2 G,,2 | C,,4 z4 | z8 | z8 | z8 | x8 | G,,A,,G,,F,, E,,2 C,,2 | %16
 F,,8 | G,,4 z4 | x8 | z8 || E,,4 A,,,4 | B,,4 C,,4 | G,,4 _E,,4 | F,,4 _B,,4 | _E,,4 z4 | %25
 z4 z2 E,,2- | E,,F,,G,,E,, B,2 z2 | z4 C,4 | G,,8 ||[K:C] x8 | z8 | z8 | A4 E4- | EFED C2 A2 | %34
 ^F,2 B2 E2 E2 | D6 C2 | C4 x4 |[K:Eb] [=B,=B]6 [C,C]2 | [C,C]4 z4 | =E,8- | E,8 | =A4 x4 | x8 | %43
 x8 | C,4 z4 |][M:4/4] x8 | x8 | x8 | x8 | B,2 x2 x4 | x8 | x8 | x4 x2 G,2 | x8 | x8 | x8 | x8 | %57
 x8 | x8 | x8 | x8 | B2 z2 z4 | z2 G,2 A,G,A,B | C4 A,2 B2 | E,6 x2 | G,,8 | C,8 | G,,4 G,4- | %68
 G,2 x2 z4 | z4 _B2 B2 | F,2 F,2 z4 | z4 x4 | x4 z4 | z4 B2 B2 | E,8 | F,8 | B,2 x2 x4 | x8 | x8 | %79
 x8 | x8 | E,4 =G,4 | A,4- A,4 | =D,4 F,4 | G,2 G,2 F,2 E,D, | x8 | x8 | x8 | x8 | x8 | x8 | x8 | %92
 x8 | z8 | z8 | z8 | z8 | z8 | E,8 | F,8 | !fermata!C,8 || z8 | z8 | z8 | z8 | z8 | z8 | x8 | z8 | %109
 z8 | z8 | z8 | z8 | z8 | z8 | z8 | z8 | z8 | =A,4 =E,4 | x6 z2 | z8 | x8 | x8 | x8 ||[K:Eb] x8 | %125
 x8 | x8 | x8 | B,2 x2 x4 | x8 | x8 | G,,8 | x8 | x8 | z8 | z8 |[K:C] z8 | z8 | z8 | z8 | %140
[K:Eb] B4 F,2 A,2 | G,2 F,2 E,2 D,2 | x8 | x8 | ^F,8- | F,4 ^F,4 | G,8 | =F,8 | E,4 x4 | x8 | x8 | %151
[K:C] x8 | x8 | _E,,2 E,,6 | x8 | G,,2 _E,,2 _A,,,4 | _B,,8- | B,,8 | _E,,4 x4 | _E,,8 | %160
 _E,,2 E,,2 x4 |][M:3/4] z6 | z6 | z6 | z2 z2 C,2 | D,6 | =A,6 | F,6 | =E2 ^G,4 | A2 B2 C2 | %170
 B2 A2 B2 | C2 _E,4 | x6 | x6 | x6 | x6 | _A,4- A,2 | _E,4- E,2- | E,2 x2 x2 | x6 | x6 | x6 | %182
 x2 A,2 B,^C, | D,2 E,2 F,2 | x6 | x6 | D,2 F,4 | E6 | F4 z2 | z6 | z6 | z6 | z6 | z6 | z6 | x6 | %196
 x4 x2 | x6 | x6 | C4 _B2 | _A,4 A,2 | =A6 | _B2 B2 x2 | z6 | z6 | z6 | z6 | z6 | z6 | z6 | z6 | %211
 A,,6 | ^F,,,6 | G,,,6 | C,4 x2 | x6 | x6 | x6 | x4[K:bass] F,2- | F,2 E,2 D,2 | A4 C,,2 | %221
 F,,4 ^F,,2 | G,,4 _G,,2 | x6 | x6 | !fermata![F,,_B,,]6 || z6 | z2 x2[K:treble] x2 | x6 | x6 | %230
 x6 | x6 | x6 | x6 | x6 | x6 | x6 | x6 | G4!>(! G,C!>)! | C4 x2 ||[M:4/4] x8 | x8 | x8 | x8 | x8 | %245
 _B,4- B,2 x2 | x8 | x8 | x8 | x8 || z8 | z8 |[K:C] z8 | z4 z2 x2 | x8 | F,4 F,4- | F,8- | %257
 F,6 F,2- | F,6 F,2 | C,8 | x8 | x8 | x8 | x8 | x4 x2 =B2 | C4- C2 x2 | x8 | x8 | x8 | x8 | x8 | %271
 x2 _B6 | _E,8 | !fermata!_B,8 | z8 | z8 | z8 | z8 | z8 | z8 |[K:C] z8 | z8 | z8 | z8 | z4 B,4- | %285
 [E,,B,]6 E,2 | D,8 | x8 | x8 | x8 | x8 | x8 |[K:Eb] x8 | x8 | x8 | x8 | x8 | !fermata!G,,6 z2 || %298
[M:3/4] z6 | z6 | z6 | z2 z2 C,2 | D,6 | =A,6 | F,6 | =E4 x2 | x6 | x6 | x6 | x4[K:bass] F,2- | %310
 F,2 =E,2 D,2 | =A,4 C,,2 | F,,4 ^F,,2 | G,,4 _G,,2 | F,,6 | F,,,6 | B,2 G,2 F,2 | E,4 C,2 | %318
 _A,,,6- | A,,,6 | _A,,,6- | A,,,6 | G,,,4 z2 | z6 | z6 | z6 | z2 z2 B,2 | E,,2 G,,2 B,2 | C,6 | %329
 F,,6 | B,6- | B,,6 | E,,2 x2 x2 | B,6 | E,,2 x2 x2 | x6 | x6 | x6 | x6 |][M:4/4] C,,4 G,,,4 | %340
 =A,,4 =E,,,2 G,,,2 | C,,4 z4 | z8 | z8 | F,,4 =E,,4 | D,,2 x2 x4 | z8 | z4 z2 G,,,2 | %348
 =A,,6 [F,,,F,,]2 | !fermata![=E,,,=E,,]8 ||[K:Eb] x8 | x8 | x8 | x8 | x8 | x4 x2 C,2 | %356
 F,,2 x2 x4 | x4 x2 B,2 | G,,2 G,,4 F,,2 | E,,4 F,,4 | B,,4 x4 | x8 | x8 | x8 | x8 | E,,,8 | %366
 [A,,,A,,]6 A,,2 | G,,4 C,2 x2 | x8 | x8 | x4 _E,4 | [_A,,_A,]8 | [_E,,_E,]4 x4 | x4 C,2 C,2 | %374
 C,4 x4 |][K:F][M:4/4] x8 |[K:D] G4 F2 x2 |[K:F] x8 | A,8 | D,2 x2 x4 | z8 | z8 | x8 | z8 | z8 | %385
 z8 | z2 =C,6- | C,8 |[K:F] x8 | C,8 | D,4 C,2 =B,2 | C,6 E,2 | F,4 ^F,4 | G,6 ^G,2 | A4- A2 A2 | %395
 =B6 B2 | =B4 x4 | x8 |[K:D] G,,,8- | G,,,8 | =C,,4 z4 | x8 | x8 | x4[K:bass] x4 | x8 | D6 F2 | %406
 G,4 F,4 |[K:F] x8 | A,4 B,4 | B,8 | A,2 F,,2 G,,2 A,2 | x8 | B,,4 x4 | x8 | x8 | z4 C,4 | %416
 F,2 D,6 | x8 | x8 | x8 | D,,8- | D,,4- D,,D,,E,,^F,, | G,,G,,,=B,,D,, G,,2 x2 |[K:F] [F,B,]8- | %424
 [F,B,]6 x2 | [B,B]8 | [B,B]4 x4 | x8 | x4 G,4 | C,6 F,2 | F,4 x4 | F,,_A,,_D,F, _A,_DF,A, | x8 | %433
 x4 F,,2 F,,2 | F,,4 x4 |][K:Eb][M:4/4] C,8- | C,4- C,4- |[K:C] C,8 | G,,4 _B,4 | C,4 F,,4 | %440
 G,,6 x2 ||[K:Eb] C,4 D,4 | E,2 x2 x4 | x8 | x2 B,6 | E,8- | E,8- ||[K:C] E,8 | _B,4 G,,4 | C,8 | %450
 D,6 x2 |[K:Eb] x8 | x8 | x8 | x2 F,2 E,2 D,2 | C,2 C,6- | C,4- C,4- | C,4 x4 | x8 | x8 | x8 | x8 | %462
 G,6 G,,2 ||[K:C] C,4 x4 | x4 x4 | x8 | x4 x2 E,2 | A,4 x4 | x8 | x8 | x8 | x8 ||[K:C] x8 | x8 | %474
 x8 | x8 | x8 | x8 | x8 | x4 C,,4 | C,,4 C,,4- | x8 | C,,4 x4 |[K:A] =C8- | !fermata!C8 |] %485
V:12
 x8 | x8 |[K:Eb] x8 | x8 ||[K:Eb] x8 | x8 | x8 | x8 | x8 | x8 | x8 | x8 | x8 | x8 | E,2 G,6- | x8 | %16
 x8 | x8 | x8 | x8 || x8 | x8 | x8 | x8 | x8 | x8 | x8 | x8 | x8 ||[K:C] x8 | x8 | x8 | x8 | x8 | %34
 x8 | x8 | x8 |[K:Eb] x8 | x8 | x8 | x8 | x8 | x8 | x8 | x8 |][M:4/4] x8 | x8 | x8 | x8 | x8 | x8 | %51
 x8 | x8 | x8 | x8 | x8 | x8 | x8 | x8 | x8 | x8 | x8 | x8 | x8 | x8 | x8 | x8 | d'bcd efg=a' | %68
 b'2 z2 z4 | x8 | x8 | x8 | x8 | x8 | x8 | x8 | x8 | x8 | x8 | x8 | x8 | x8 | x8 | x8 | x8 | x8 | %86
 x8 | x8 | x8 | x8 | x8 | x8 | x8 | x2 =B2 D2 G2 | x8 | x8 | x8 | x8 | x8 | x8 | x8 || x8 | x8 | %103
 x8 | x8 | x8 | x8 | x8 | x8 | x8 | x8 | x8 | x8 | x8 | x8 | x8 | x8 | x8 | x8 | x8 | x8 | x8 | %122
 x8 | x8 ||[K:Eb] x8 | x8 | x8 | x8 | x8 | x8 | x8 | x8 | x8 | x8 | x8 | x8 |[K:C] x8 | x8 | x8 | %139
 x8 |[K:Eb] x8 | x8 | x8 | x8 | x8 | x8 | x8 | x8 | x8 | x8 | x8 |[K:C] x8 | x8 | x8 | x8 | x8 | %156
 x8 | x8 | x8 | x8 | x8 |][M:3/4] x6 | x6 | x6 | x6 | x6 | x6 | x6 | x6 | x6 | x6 | x6 | x6 | x6 | %174
 x6 | x6 | x6 | x6 | x6 | x6 | x6 | x6 | x6 | x6 | x6 | x6 | x6 | x6 | x6 | x6 | x6 | x6 | x6 | %193
 x6 | x6 | x6 | x6 | x6 | x6 | x6 | x6 | x6 | x6 | x6 | x6 | x6 | x6 | x6 | x6 | x6 | x6 | x6 | %212
 x6 | x6 | x6 | x6 | x6 | x6 | x6 | x6 | x6 | x6 | x6 | x6 | x6 | x6 || [_EG_b]6- | %227
 [_eg_b']2 x2 x2 | x6 | x6 | x6 | x6 | x6 | x6 | x6 | x6 | x6 | x6 | x6 | x6 ||[M:4/4] x8 | x8 | %242
 x8 | x8 | x8 | x8 | x8 | x8 | x8 | x8 || x8 | x8 |[K:C] x8 | x8 | x8 | x8 | x8 | x8 | x8 | x8 | %260
 x8 | x8 | x8 | x8 | x8 | x8 | x8 | x8 | x8 | x8 | x8 | x8 | x8 | x8 | x8 | x8 | x8 | _b3 b b_eeg | %278
 x8 | x8 |[K:C] x8 | x8 | x8 | x8 | x8 | x8 | x8 | x8 | x8 | x8 | x8 | x8 |[K:Eb] x8 | x8 | x8 | %295
 x8 | x8 | x8 ||[M:3/4] x6 | x6 | x6 | x6 | x6 | x6 | x6 | x6 | x6 | x6 | x6 | x6 | x6 | x6 | x6 | %313
 x6 | x6 | B2 =AG, A2 | x6 | x6 | x6 | x6 | x6 | x6 | x6 | x6 | x6 | x6 | x6 | x6 | x6 | x6 | x6 | %331
 x6 | x6 | x6 | x6 | x6 | x6 | x6 | x6 |][M:4/4] x8 | x8 | x8 | x8 | x8 | x8 | x8 | x8 | x8 | x8 | %349
 x8 ||[K:Eb] x4 G,3 =B | x8 | x8 | x8 | x8 | x8 | x8 | x8 | x8 | x8 | x8 | x8 | x8 | x8 | x8 | x8 | %366
 x8 | x8 | x8 | x8 | x8 | x8 | x8 | x8 | x8 |][K:F][M:4/4] x8 |[K:D] x8 |[K:F] x8 | x8 | x8 | x8 | %381
 x8 | x8 | x8 | x8 | x8 | x8 | x8 |[K:F] x8 | x8 | x8 | x8 | x8 | x8 | x8 | x8 | x8 | x8 | %398
[K:D] x8 | x8 | E4 x4 | x8 | x8 | x8 | x8 | x8 | x8 |[K:F] x8 | x8 | x8 | x8 | x8 | x8 | x8 | x8 | %415
 x8 | z4 z2 ^F2 | x8 | A8- | x8 | x8 | x8 | x8 |[K:F] x8 | b'2"^Instrument change" b2 b2 z2 | x8 | %426
 x8 | x8 | x8 | x8 | x8 | x8 | x8 | x8 | x8 |][K:Eb][M:4/4] x8 | x8 |[K:C] x8 | G,4 x4 | x8 | x8 || %441
[K:Eb] x8 | x8 | x8 | x8 | x8 | x8 ||[K:C] x8 | x8 | x8 | x8 |[K:Eb] x8 | x8 | x8 | z2 G6- | x8 | %456
 x8 | x8 | x8 | x8 | x8 | x8 | x8 ||[K:C] x8 | x8 | x8 | x8 | x8 | x8 | x8 | x8 | x8 ||[K:C] x8 | %473
 x8 | x8 | x8 | x8 | x8 | x8 | x8 | x4 C4- | x8 | x8 |[K:A] x8 | x8 |] %485
V:13
 x8 | x8 |[K:Eb] x8 | x8 ||[K:Eb] x8 | x8 | x8 | x8 | x8 | x8 | x8 | x8 | x8 | x8 | x8 | x8 | x8 | %17
 x8 | x8 | x8 || x8 | x8 | x8 | x8 | x8 | x8 | x8 | x8 | x8 ||[K:C] x8 | x8 | x8 | x8 | x4 x2 C2 | %34
 x8 | x8 | x8 |[K:Eb] x8 | x8 | x8 | x8 | x8 | x8 | x8 | x8 |][M:4/4] x8 | x8 | x8 | x8 | x8 | x8 | %51
 x8 | x8 | x2 F2 E2 b2 | x8 | G4 A2 b2 | c4 x4 | x8 | x8 | x8 | x8 | x8 | x8 | x8 | x8 | x8 | x8 | %67
 x8 | x8 | x8 | x8 | x8 | x8 | x8 | x8 | x8 | x8 | x8 | x8 | x8 | x8 | x8 | x8 | x8 | x8 | x8 | %86
 x8 | x8 | x8 | x8 | x8 | x8 | x8 | x8 | x8 | x8 | x8 | x8 | x8 | x8 | x8 || x8 | x8 | x8 | x8 | %105
 x8 | x8 | x4 F_Adc | x8 | x8 | x8 | x8 | x8 | x8 | x8 | x8 | x8 | x8 | x8 | x8 | x8 | x8 | x8 | %123
 x8 ||[K:Eb] x8 | x8 | x8 | x8 | x8 | x8 | x8 | x8 | x8 | x8 | x8 | x8 | %136
[K:C] D2"^Instrument change" z2 z4 | x8 | x8 | x8 |[K:Eb] x8 | x6 F2 | x8 | x8 | x8 | x8 | x8 | %147
 x8 | x8 | x8 | x8 |[K:C] x8 | x8 | x8 | x8 | x8 | x8 | x8 | x8 | x8 | x8 |][M:3/4] x6 | x6 | x6 | %164
 x6 | x6 | x6 | x6 | x6 | x6 | x6 | x6 | x6 | x6 | x6 | x6 | x6 | x6 | x6 | x6 | x6 | x6 | x6 | %183
 x6 | x6 | x6 | x6 | x6 | x6 | x6 | x6 | x6 | x6 | x6 | x6 | x6 | x6 | x6 | x6 | x6 | x6 | x6 | %202
 x6 | x6 | x6 | x6 | x6 | x6 | x6 | x6 | x6 | x6 | x6 | x6 | x6 | x6 | x6 | x6 | x6 | x6 | x6 | %221
 x6 | x6 | x6 | F,6 | x6 || x6 | x6 | x6 | x6 | x6 | x6 | x6 | x6 | x6 | x6 | x6 | x6 | x6 | x6 || %240
[M:4/4] x8 | x8 | x8 | x8 | x8 | x8 | x8 | x8 | x8 | x8 || x8 | x8 |[K:C] x8 | x8 | x8 | x8 | x8 | %257
 x8 | x8 | x8 | x8 | x8 | x8 | x8 | x8 | x8 | x8 | x8 | x8 | x8 | x8 | x8 | x8 | x8 | x8 | x8 | %276
 x8 | x8 | x8 | x8 |[K:C] x8 | x8 | x8 | x8 | x8 | x8 | x8 | x8 | x8 | x8 | x8 | x8 |[K:Eb] x8 | %293
 x8 | x8 | x8 | x8 | x8 ||[M:3/4] x6 | x6 | x6 | x6 | x6 | x6 | x6 | x6 | x6 | x6 | x6 | x6 | x6 | %311
 x6 | x6 | x6 | x6 | x6 | x6 | x6 | x6 | x6 | x6 | x6 | x6 | x6 | x6 | x6 | x6 | x6 | x6 | x6 | %330
 x6 | x6 | x6 | x6 | x6 | x6 | x6 | x6 | x6 |][M:4/4] x8 | x8 | x8 | x8 | x8 | x8 | x8 | x8 | %347
 x4 x2 D2 | x8 | x8 ||[K:Eb] x8 | x8 | x8 | x8 | x8 | x8 | x8 | x8 | x8 | x8 | x8 | x8 | x8 | x8 | %364
 x8 | x8 | x8 | x8 | x8 | x8 | x8 | x8 | x8 | x8 | x8 |][K:F][M:4/4] x8 |[K:D] x8 |[K:F] x8 | x8 | %379
 x8 | x8 | x8 | x8 | x8 | x8 | x8 | x8 | x8 |[K:F] x8 | x8 | x8 | x8 | x8 | x8 | x8 | x8 | x8 | %397
 x8 |[K:D] x8 | x8 | x8 | x8 | x8 | x8 | x8 | x8 | x8 |[K:F] x8 | x8 | x8 | x8 | x8 | x8 | x8 | %414
 x8 | x8 | x8 | x8 | x8 | x8 | x8 | x8 | x8 |[K:F] x8 | x8 | x8 | x8 | x8 | x8 | x8 | x8 | x8 | %432
 x8 | x8 | x8 |][K:Eb][M:4/4] x8 | x8 |[K:C] x8 | x8 | x8 | x8 ||[K:Eb] x8 | x8 | x8 | x8 | x8 | %446
 x8 ||[K:C] x8 | x8 | x8 | x8 |[K:Eb] x8 | x8 | x8 | x8 | x8 | x8 | x8 | x8 | x8 | x8 | x8 | x8 || %463
[K:C] x8 | x8 | x8 | x8 | x8 | x8 | x8 | x8 | x8 ||[K:C] x8 | x8 | x8 | x8 | x8 | x8 | x8 | x8 | %480
 x8 | x8 | x8 |[K:A] x8 | x8 |] %485
V:14
 x8 | x8 |[K:Eb] x8 | x8 ||[K:Eb] x8 | x8 | x8 | x8 | x8 | x8 | x8 | x8 | x8 | x8 | x8 | x8 | x8 | %17
 x8 | x8 | x8 || x8 | x8 | x8 | x8 | x8 | x8 | x8 | x8 | x8 ||[K:C] x8 | x8 | x8 | x8 | x8 | x8 | %35
 x8 | x8 |[K:Eb] x8 | x8 | z8 | z8 | E4 x4 | x8 | x4 G,2 G,2 | x8 |][M:4/4] x8 | x8 | x8 | x8 | %49
 x8 | x8 | x8 | x8 | x8 | x8 | x8 | x8 | x8 | x8 | x8 | x8 | x8 | x8 | x8 | x8 | x8 | x8 | x8 | %68
 x8 | x8 | x8 | x8 | x8 | x8 | x8 | x8 | x8 | x8 | x8 | x8 | x8 | x8 | x8 | x8 | x8 | x8 | x8 | %87
 x8 | x8 | x8 | x8 | x8 | x8 | x8 | x8 | x8 | x8 | x8 | x8 | x8 | x8 || x8 | x8 | x8 | x8 | x8 | %106
 x8 | x8 | x8 | x8 | x8 | x8 | x8 | x8 | x8 | x8 | x8 | x8 | x8 | x8 | x8 | x8 | x8 | x8 || %124
[K:Eb] x8 | x8 | x8 | x8 | x8 | x8 | x8 | x8 | x8 | x8 | x8 | x8 |[K:C] x8 | x8 | x8 | x8 | %140
[K:Eb] x8 | x8 | x8 | x8 | x8 | x8 | x8 | x8 | x8 | x8 | x8 |[K:C] x8 | x8 | x8 | x8 | x8 | x8 | %157
 x8 | x8 | x8 | x8 |][M:3/4] x6 | x6 | x6 | x6 | x6 | x6 | x6 | x6 | x6 | x6 | x6 | x6 | x6 | x6 | %175
 x6 | x6 | x6 | x6 | x6 | x6 | x6 | x6 | x6 | x6 | x6 | x6 | x6 | x6 | x6 | x6 | x6 | x6 | x6 | %194
 x6 | x6 | x6 | x6 | x6 | x6 | x6 | x6 | x6 | x6 | x6 | x6 | x6 | x6 | x6 | x6 | x6 | x6 | x6 | %213
 x6 | x6 | x6 | x6 | x6 | x4[K:bass] x2 | x6 | x6 | x6 | x6 | x6 | x6 | x6 || x6 | %227
 x4[K:treble] x2 | x6 | x6 | x6 | x6 | x6 | x6 | x6 | x6 | x6 | x6 | x6 | x6 ||[M:4/4] x8 | x8 | %242
 x8 | x8 | x8 | x8 | x8 | x8 | x8 | x8 || x8 | x8 |[K:C] x8 | x8 | x8 | x8 | x8 | x8 | x8 | x8 | %260
 x8 | x8 | x8 | x8 | x8 | x8 | x8 | x8 | x8 | x8 | x8 | x8 | x8 | x8 | x8 | x8 | x8 | x8 | x8 | %279
 x8 |[K:C] x8 | x8 | x8 | x8 | x8 | x8 | x8 | x8 | x8 | x8 | x8 | x8 |[K:Eb] x8 | x8 | x8 | x8 | %296
 x8 | x8 ||[M:3/4] x6 | x6 | x6 | x6 | x6 | x6 | x6 | x6 | x6 | x6 | x6 | x4[K:bass] x2 | x6 | x6 | %312
 x6 | x6 | x6 | x6 | x6 | x6 | x6 | x6 | x6 | x6 | x6 | x6 | x6 | x6 | x6 | x6 | x6 | x6 | x6 | %331
 x6 | x6 | x6 | x6 | x6 | x6 | x6 | x6 |][M:4/4] x8 | x8 | x8 | x8 | x8 | x8 | x8 | x8 | x8 | x8 | %349
 x8 ||[K:Eb] x8 | x8 | x8 | x8 | x8 | x8 | x8 | x8 | x8 | x8 | x8 | x8 | x8 | x8 | x8 | x8 | x8 | %367
 x8 | x8 | x8 | x8 | x8 | x8 | x8 | x8 |][K:F][M:4/4] x8 |[K:D] x8 |[K:F] x8 | x8 | x8 | x8 | x8 | %382
 x8 | x8 | x8 | x8 | x8 | x8 |[K:F] x8 | x8 | x8 | x8 | x8 | x8 | x8 | x8 | x8 | x8 |[K:D] x8 | %399
 x8 | x8 | x8 | x8 | x4[K:bass] x4 | x8 | x8 | x8 |[K:F] x8 | x8 | x8 | x8 | x8 | x8 | x8 | x8 | %415
 x8 | z2 x6 | x8 | x8 | x8 | x8 | x8 | x8 |[K:F] x8 | x8 | x8 | x8 | x8 | x8 | x8 | x8 | x8 | x8 | %433
 x8 | x8 |][K:Eb][M:4/4] x8 | x8 |[K:C] x8 | x8 | x8 | x8 ||[K:Eb] x8 | x8 | x8 | x8 | x8 | x8 || %447
[K:C] x8 | x8 | x8 | x8 |[K:Eb] x8 | x8 | x8 | x8 | x8 | x8 | x8 | x8 | x8 | x8 | x8 | x8 || %463
[K:C] x8 | x8 | x8 | x8 | x8 | x8 | x8 | x8 | x8 ||[K:C] x8 | x8 | x8 | x8 | x8 | x8 | x8 | x8 | %480
 x8 | x8 | z2 G,,2 C,2 E,2 |[K:A] x8 | x8 |] %485

